Tests/TestData/demo_lut_1.cube
# Demo LUT - Cinematic Teal & Orange
# Created for demonstration purposes
# Format: Adobe .cube
TITLE "Demo Cinematic Teal Orange"
LUT_3D_SIZE 9
DOMAIN_MIN 0.0 0.0 0.0
DOMAIN_MAX 1.0 1.0 1.0
0.000000 0.055696 0.102871
0.058886 0.057091 0.102058
0.163796 0.059070 0.100905
0.289343 0.061439 0.099524
0.425209 0.064002 0.098030
0.561076 0.066565 0.096536
0.686623 0.068933 0.095156
0.791532 0.070912 0.094002
0.865485 0.072308 0.093189
0.000770 0.129635 0.100136
0.074722 0.131030 0.099323
0.179632 0.133009 0.098169
0.305179 0.135377 0.096789
0.441045 0.137940 0.095295
0.576912 0.140503 0.093801
0.702459 0.142872 0.092420
0.807369 0.144851 0.091267
0.881321 0.146246 0.090454
0.023235 0.234524 0.096255
0.097188 0.235919 0.095442
0.202097 0.237898 0.094289
0.327644 0.240266 0.092908
0.463511 0.242829 0.091414
0.599377 0.245392 0.089920
0.724924 0.247761 0.088540
0.829834 0.249740 0.087386
0.903786 0.251135 0.086573
0.050120 0.360047 0.091611
0.124072 0.361442 0.090798
0.228982 0.363421 0.089645
0.354529 0.365789 0.088264
0.490395 0.368353 0.086770
0.625682 0.371246 0.086214
0.747648 0.375657 0.090624
0.849565 0.379342 0.094310
0.921408 0.381940 0.096908
0.079214 0.495887 0.086586
0.153166 0.497282 0.085773
0.255791 0.500564 0.088314
0.377757 0.504975 0.092725
0.509747 0.509747 0.097497
0.643487 0.515467 0.101009
0.769810 0.522234 0.102279
0.875367 0.527889 0.103339
0.949776 0.531876 0.104087
0.098087 0.637555 0.098087
0.170113 0.640252 0.100553
0.275670 0.645907 0.101614
0.401993 0.652674 0.102883
0.538698 0.659998 0.104257
0.675404 0.667322 0.105630
0.801726 0.674090 0.106900
0.907284 0.679745 0.107960
0.981693 0.683731 0.108708
0.125196 0.776588 0.104076
0.199606 0.780574 0.104823
0.305163 0.786229 0.105884
0.431486 0.792997 0.107153
0.568191 0.800321 0.108527
0.704896 0.807644 0.109900
0.831219 0.814412 0.111170
0.936776 0.820067 0.112230
1.000000 0.824053 0.112978
0.149841 0.893843 0.107644
0.224250 0.897830 0.108391
0.329808 0.903485 0.109452
0.456130 0.910252 0.110721
0.592836 0.917576 0.112095
0.729541 0.924900 0.113468
0.855863 0.931668 0.114738
0.961421 0.937323 0.115798
1.000000 0.941309 0.116546
0.167213 0.976499 0.110159
0.241623 0.980485 0.110906
0.347180 0.986140 0.111967
0.473503 0.992908 0.113236
0.610208 1.000000 0.114610
0.746913 1.000000 0.115983
0.873236 1.000000 0.117253
0.978793 1.000000 0.118313
1.000000 1.000000 0.119061
0.000000 0.056170 0.171840
0.060485 0.057565 0.171027
0.165394 0.059544 0.169874
0.290942 0.061913 0.168493
0.426808 0.064476 0.166999
0.562674 0.067039 0.165505
0.688222 0.069407 0.164125
0.793131 0.071386 0.162971
0.867084 0.072781 0.162158
0.002368 0.130108 0.169105
0.076321 0.131503 0.168292
0.181230 0.133482 0.167138
0.306778 0.135851 0.165758
0.442644 0.138414 0.164264
0.578510 0.140977 0.162770
0.704058 0.143345 0.161389
0.808967 0.145325 0.160236
0.882920 0.146720 0.159423
0.024834 0.234998 0.165224
0.098786 0.236393 0.164411
0.203696 0.238372 0.163258
0.329243 0.240740 0.161877
0.465109 0.243303 0.160383
0.600976 0.245866 0.158889
0.726523 0.248235 0.157509
0.831432 0.250214 0.156355
0.905385 0.251609 0.155542
0.051718 0.360521 0.160580
0.125671 0.361916 0.159767
0.230580 0.363895 0.158614
0.356128 0.366263 0.157233
0.491994 0.368826 0.155739
0.626564 0.372128 0.156341
0.748530 0.376539 0.160752
0.850447 0.380224 0.164437
0.922290 0.382822 0.167035
0.080812 0.496361 0.155555
0.154756 0.497761 0.154756
0.256673 0.501446 0.158442
0.378639 0.505857 0.162852
0.510630 0.510630 0.167625
0.645241 0.516820 0.170509
0.771563 0.523588 0.171778
0.877121 0.529243 0.172838
0.951530 0.533229 0.173586
0.098969 0.638437 0.168215
0.171867 0.641606 0.170052
0.277424 0.647261 0.171113
0.403747 0.654028 0.172382
0.540452 0.661352 0.173756
0.677157 0.668676 0.175129
0.803480 0.675444 0.176399
0.909037 0.681099 0.177459
0.983446 0.685085 0.178207
0.126950 0.777941 0.173575
0.201359 0.781928 0.174322
0.306917 0.787583 0.175383
0.433239 0.794351 0.176652
0.569945 0.801674 0.178026
0.706650 0.808998 0.179399
0.832973 0.815766 0.180669
0.938530 0.821421 0.181729
1.000000 0.825407 0.182477
0.151595 0.895197 0.177143
0.226004 0.899183 0.177890
0.331561 0.904839 0.178951
0.457884 0.911606 0.180220
0.594589 0.918930 0.181594
0.731295 0.926254 0.182967
0.857617 0.933021 0.184237
0.963174 0.938676 0.185297
1.000000 0.942663 0.186045
0.168967 0.977853 0.179658
0.243376 0.981839 0.180405
0.348934 0.987494 0.181466
0.475256 0.994262 0.182735
0.611962 1.000000 0.184109
0.748667 1.000000 0.185482
0.874990 1.000000 0.186752
0.980547 1.000000 0.187812
1.000000 1.000000 0.188560
0.000000 0.056842 0.269680
0.062753 0.058237 0.268867
0.167662 0.060216 0.267713
0.293210 0.062585 0.266333
0.429076 0.065148 0.264839
0.564942 0.067711 0.263345
0.690490 0.070079 0.261965
0.795399 0.072058 0.260811
0.869352 0.073453 0.259998
0.004636 0.130780 0.266944
0.078589 0.132176 0.266131
0.183498 0.134155 0.264978
0.309046 0.136523 0.263597
0.444912 0.139086 0.262103
0.580778 0.141649 0.260610
0.706326 0.144018 0.259229
0.811235 0.145997 0.258076
0.885188 0.147392 0.257262
0.027102 0.235670 0.263064
0.101054 0.237065 0.262251
0.205964 0.239044 0.261097
0.331511 0.241412 0.259717
0.467377 0.243975 0.258223
0.603244 0.246538 0.256729
0.728791 0.248907 0.255349
0.833700 0.250886 0.254195
0.907653 0.252281 0.253382
0.053986 0.361193 0.258420
0.127939 0.362588 0.257607
0.232848 0.364567 0.256453
0.358395 0.366935 0.255073
0.494262 0.369498 0.253579
0.627816 0.373380 0.255824
0.749782 0.377790 0.260235
0.851699 0.381476 0.263920
0.923542 0.384074 0.266518
0.083080 0.497033 0.253395
0.156008 0.499013 0.254239
0.257925 0.502698 0.257925
0.379891 0.507108 0.262335
0.511881 0.511881 0.267108
0.647729 0.518741 0.269100
0.774051 0.525508 0.270369
0.879608 0.531164 0.271430
0.954018 0.535150 0.272178
0.100221 0.639689 0.267698
0.174355 0.643526 0.268644
0.279912 0.649181 0.269705
0.406235 0.655949 0.270974
0.542940 0.663273 0.272347
0.679645 0.670596 0.273721
0.805968 0.677364 0.274990
0.911525 0.683019 0.276051
0.985934 0.687006 0.276799
0.129438 0.779862 0.272166
0.203847 0.783848 0.272914
0.309405 0.789503 0.273974
0.435727 0.796271 0.275244
0.572433 0.803595 0.276617
0.709138 0.810919 0.277991
0.835461 0.817686 0.279260
0.941018 0.823341 0.280321
1.000000 0.827328 0.281069
0.154083 0.897118 0.275734
0.228492 0.901104 0.276482
0.334049 0.906759 0.277543
0.460372 0.913527 0.278812
0.597077 0.920850 0.280185
0.733782 0.928174 0.281559
0.860105 0.934942 0.282828
0.965662 0.940597 0.283889
1.000000 0.944583 0.284637
0.171455 0.979773 0.278249
0.245864 0.983760 0.278997
0.351422 0.989415 0.280058
0.477744 0.996182 0.281327
0.614450 1.000000 0.282701
0.751155 1.000000 0.284074
0.877478 1.000000 0.285343
0.983035 1.000000 0.286404
1.000000 1.000000 0.287152
0.000000 0.057646 0.386767
0.065467 0.059042 0.385954
0.170376 0.061021 0.384800
0.295924 0.063389 0.383420
0.431790 0.065952 0.381926
0.567656 0.068515 0.380432
0.693204 0.070884 0.379051
0.798113 0.072863 0.377898
0.872066 0.074258 0.377085
0.007350 0.131585 0.384031
0.081303 0.132980 0.383218
0.186212 0.134959 0.382065
0.311760 0.137327 0.380684
0.447626 0.139890 0.379190
0.583492 0.142453 0.377696
0.709040 0.144822 0.376316
0.813949 0.146801 0.375162
0.887902 0.148196 0.374349
0.029816 0.236474 0.380151
0.103768 0.237869 0.379338
0.208678 0.239848 0.378184
0.334225 0.242217 0.376804
0.470091 0.244780 0.375310
0.605958 0.247343 0.373816
0.731505 0.249711 0.372436
0.836414 0.251690 0.371282
0.910202 0.253179 0.370735
0.056700 0.361997 0.375507
0.130653 0.363392 0.374694
0.235562 0.365371 0.373540
0.361109 0.367740 0.372160
0.496976 0.370303 0.370666
0.629313 0.374878 0.374878
0.751279 0.379288 0.379288
0.853196 0.382974 0.382974
0.925078 0.385593 0.385544
0.085662 0.497912 0.370695
0.157505 0.500510 0.373293
0.259422 0.504196 0.376978
0.381388 0.508606 0.381388
0.514001 0.513715 0.385713
0.650706 0.521039 0.387087
0.777028 0.527807 0.388356
0.882586 0.533462 0.389417
0.956995 0.537448 0.390164
0.102923 0.641838 0.385883
0.177332 0.645824 0.386631
0.282889 0.651480 0.387691
0.409212 0.658247 0.388961
0.545917 0.665571 0.390334
0.682623 0.672895 0.391708
0.808945 0.679662 0.392977
0.914502 0.685317 0.394038
0.988912 0.689304 0.394785
0.132415 0.782160 0.390153
0.206825 0.786147 0.390901
0.312382 0.791802 0.391961
0.438705 0.798569 0.393230
0.575410 0.805893 0.394604
0.712115 0.813217 0.395978
0.838438 0.819985 0.397247
0.943995 0.825640 0.398308
1.000000 0.829626 0.399055
0.157060 0.899416 0.393721
0.231469 0.903402 0.394469
0.337026 0.909057 0.395529
0.463349 0.915825 0.396798
0.600054 0.923149 0.398172
0.736760 0.930473 0.399546
0.863082 0.937240 0.400815
0.968640 0.942895 0.401876
1.000000 0.946882 0.402623
0.174432 0.982071 0.396236
0.248842 0.986058 0.396984
0.354399 0.991713 0.398044
0.480722 0.998481 0.399314
0.617427 1.000000 0.400687
0.754132 1.000000 0.402061
0.880455 1.000000 0.403330
0.986012 1.000000 0.404391
1.000000 1.000000 0.405138
0.000000 0.058517 0.513477
0.068404 0.059912 0.512664
0.173313 0.061891 0.511511
0.298861 0.064259 0.510130
0.434727 0.066823 0.508636
0.570593 0.069386 0.507142
0.696141 0.071754 0.505762
0.801050 0.073733 0.504608
0.875003 0.075128 0.503795
0.010287 0.132455 0.510742
0.084240 0.133850 0.509929
0.189149 0.135829 0.508775
0.314697 0.138198 0.507395
0.450563 0.140761 0.505901
0.586429 0.143324 0.504407
0.711977 0.145692 0.503026
0.816886 0.147671 0.501873
0.890839 0.149067 0.501060
0.032753 0.237344 0.506861
0.106705 0.238739 0.506048
0.211615 0.240719 0.504895
0.337162 0.243087 0.503514
0.473028 0.245650 0.502020
0.608895 0.248213 0.500526
0.734442 0.250582 0.499146
0.839351 0.252561 0.497992
0.911823 0.254800 0.499573
0.059637 0.362868 0.502217
0.133590 0.364263 0.501404
0.238499 0.366242 0.500251
0.364047 0.368610 0.498870
0.498944 0.371726 0.498944
0.630934 0.376499 0.503717
0.752900 0.380909 0.508127
0.854817 0.384595 0.511812
0.928300 0.388080 0.513228
0.087283 0.499533 0.499533
0.159126 0.502131 0.502131
0.261043 0.505817 0.505817
0.383009 0.510227 0.510227
0.517223 0.516203 0.513398
0.653928 0.523526 0.514771
0.780250 0.530294 0.516040
0.885808 0.535949 0.517101
0.960217 0.539935 0.517849
0.106145 0.644325 0.513567
0.180554 0.648312 0.514315
0.286111 0.653967 0.515376
0.412434 0.660734 0.516645
0.549139 0.668058 0.518018
0.685845 0.675382 0.519392
0.812167 0.682150 0.520661
0.917724 0.687805 0.521722
0.992134 0.691791 0.522470
0.135637 0.784647 0.517837
0.210047 0.788634 0.518585
0.315604 0.794289 0.519645
0.441927 0.801057 0.520915
0.578632 0.808380 0.522288
0.715337 0.815704 0.523662
0.841660 0.822472 0.524931
0.947217 0.828127 0.525992
1.000000 0.832113 0.526739
0.160282 0.901903 0.521405
0.234691 0.905889 0.522153
0.340249 0.911545 0.523213
0.466571 0.918312 0.524483
0.603276 0.925636 0.525856
0.739982 0.932960 0.527230
0.866304 0.939727 0.528499
0.971862 0.945383 0.529560
1.000000 0.949369 0.530308
0.177654 0.984559 0.523920
0.252064 0.988545 0.524668
0.357621 0.994200 0.525729
0.483944 1.000000 0.526998
0.620649 1.000000 0.528372
0.757354 1.000000 0.529745
0.883677 1.000000 0.531014
0.989234 1.000000 0.532075
1.000000 1.000000 0.532823
0.000000 0.059387 0.640188
0.071341 0.060782 0.639375
0.176250 0.062761 0.638221
0.301798 0.065130 0.636841
0.437664 0.067693 0.635347
0.573530 0.070256 0.633853
0.699078 0.072624 0.632472
0.803987 0.074604 0.631319
0.877940 0.075999 0.630506
0.013225 0.133326 0.637452
0.087177 0.134721 0.636639
0.192087 0.136700 0.635486
0.317634 0.139068 0.634105
0.453500 0.141631 0.632611
0.589367 0.144194 0.631117
0.714914 0.146563 0.629737
0.819823 0.148542 0.628583
0.893776 0.149937 0.627770
0.035690 0.238215 0.633572
0.109642 0.239610 0.632759
0.214552 0.241589 0.631605
0.340099 0.243957 0.630225
0.475965 0.246520 0.628731
0.611832 0.249084 0.627237
0.737379 0.251452 0.625856
0.841601 0.253823 0.625814
0.913444 0.256421 0.628412
0.062574 0.363738 0.628928
0.136527 0.365133 0.628115
0.241436 0.367112 0.626961
0.366984 0.369481 0.625581
0.500565 0.373347 0.627782
0.632555 0.378120 0.632555
0.754521 0.382530 0.636966
0.857113 0.386581 0.640164
0.931522 0.390567 0.640912
0.088904 0.501154 0.628372
0.160747 0.503752 0.630970
0.262664 0.507438 0.634655
0.384630 0.511848 0.639066
0.520445 0.518690 0.641082
0.657150 0.526014 0.642455
0.783473 0.532781 0.643725
0.889030 0.538436 0.644785
0.963439 0.542423 0.645533
0.109367 0.646812 0.641252
0.183776 0.650799 0.641999
0.289333 0.656454 0.643060
0.415656 0.663222 0.644329
0.552361 0.670545 0.645703
0.689067 0.677869 0.647076
0.815389 0.684637 0.648346
0.920947 0.690292 0.649406
0.995356 0.694278 0.650154
0.138859 0.787135 0.645521
0.213269 0.791121 0.646269
0.318826 0.796776 0.647330
0.445149 0.803544 0.648599
0.581854 0.810868 0.649973
0.718559 0.818191 0.651346
0.844882 0.824959 0.652615
0.950439 0.830614 0.653676
1.000000 0.834601 0.654424
0.163504 0.904390 0.649089
0.237913 0.908377 0.649837
0.343471 0.914032 0.650898
0.469793 0.920799 0.652167
0.606498 0.928123 0.653541
0.743204 0.935447 0.654914
0.869526 0.942215 0.656183
0.975084 0.947870 0.657244
1.000000 0.951856 0.657992
0.180876 0.987046 0.651605
0.255286 0.991032 0.652352
0.360843 0.996687 0.653413
0.487166 1.000000 0.654682
0.623871 1.000000 0.656056
0.760576 1.000000 0.657429
0.886899 1.000000 0.658699
0.992456 1.000000 0.659759
1.000000 1.000000 0.660507
0.000102 0.060192 0.757275
0.074055 0.061587 0.756461
0.178964 0.063566 0.755308
0.304512 0.065934 0.753927
0.440378 0.068497 0.752434
0.576244 0.071060 0.750940
0.701792 0.073429 0.749559
0.806701 0.075408 0.748406
0.880654 0.076803 0.747593
0.015939 0.134130 0.754539
0.089891 0.135525 0.753726
0.194801 0.137504 0.752572
0.320348 0.139873 0.751192
0.456214 0.142436 0.749698
0.592081 0.144999 0.748204
0.717628 0.147367 0.746824
0.822537 0.149346 0.745670
0.896490 0.150741 0.744857
0.038404 0.239019 0.750659
0.112356 0.240414 0.749845
0.217266 0.242393 0.748692
0.342813 0.244762 0.747311
0.478679 0.247325 0.745818
0.614546 0.249888 0.744324
0.740093 0.252256 0.742943
0.843099 0.255321 0.744868
0.914942 0.257919 0.747466
0.065288 0.364542 0.746015
0.139241 0.365937 0.745202
0.244150 0.367916 0.744048
0.369698 0.370285 0.742668
0.502062 0.374845 0.746836
0.634053 0.379617 0.751609
0.756019 0.384028 0.756019
0.860090 0.388879 0.758151
0.934500 0.392865 0.758899
0.090402 0.502652 0.747425
0.162245 0.505250 0.750023
0.264162 0.508935 0.753709
0.386717 0.513664 0.757695
0.523422 0.520988 0.759068
0.660127 0.528312 0.760442
0.786450 0.535079 0.761711
0.892007 0.540735 0.762772
0.966416 0.544721 0.763520
0.112344 0.649111 0.759238
0.186753 0.653097 0.759986
0.292311 0.658752 0.761047
0.418633 0.665520 0.762316
0.555339 0.672844 0.763689
0.692044 0.680167 0.765063
0.818367 0.686935 0.766332
0.923924 0.692590 0.767393
0.998333 0.696577 0.768141
0.141837 0.789433 0.763508
0.216246 0.793419 0.764256
0.321803 0.799074 0.765316
0.448126 0.805842 0.766586
0.584831 0.813166 0.767959
0.721537 0.820490 0.769333
0.847859 0.827257 0.770602
0.953416 0.832912 0.771663
1.000000 0.836899 0.772410
0.166481 0.906689 0.767076
0.240891 0.910675 0.767824
0.346448 0.916330 0.768884
0.472770 0.923098 0.770154
0.609476 0.930422 0.771527
0.746181 0.937745 0.772901
0.872504 0.944513 0.774170
0.978061 0.950168 0.775231
1.000000 0.954154 0.775978
0.183854 0.989344 0.769591
0.258263 0.993331 0.770339
0.363820 0.998986 0.771400
0.490143 1.000000 0.772669
0.626848 1.000000 0.774042
0.763554 1.000000 0.775416
0.889876 1.000000 0.776685
0.995433 1.000000 0.777746
1.000000 1.000000 0.778494
0.002370 0.060864 0.855114
0.076323 0.062259 0.854301
0.181232 0.064238 0.853148
0.306780 0.066606 0.851767
0.442646 0.069169 0.850273
0.578512 0.071732 0.848779
0.704060 0.074101 0.847399
0.808969 0.076080 0.846245
0.882922 0.077475 0.845432
0.018206 0.134802 0.852379
0.092159 0.136197 0.851566
0.197068 0.138176 0.850412
0.322616 0.140545 0.849032
0.458482 0.143108 0.847538
0.594348 0.145671 0.846044
0.719896 0.148039 0.844663
0.824805 0.150018 0.843510
0.898758 0.151413 0.842697
0.040672 0.239691 0.848498
0.114624 0.241086 0.847685
0.219534 0.243065 0.846532
0.345081 0.245434 0.845151
0.480947 0.247997 0.843657
0.616814 0.250560 0.842163
0.742361 0.252928 0.840783
0.844351 0.256572 0.844351
0.916194 0.259170 0.846949
0.067556 0.365214 0.843854
0.141509 0.366609 0.843041
0.246418 0.368589 0.841888
0.371323 0.371323 0.841546
0.503314 0.376096 0.846319
0.635305 0.380869 0.851092
0.757271 0.385279 0.855502
0.862578 0.390799 0.856743
0.936987 0.394786 0.857490
0.091654 0.503904 0.846909
0.163497 0.506502 0.849506
0.265414 0.510187 0.853192
0.389204 0.515585 0.856287
0.525910 0.522909 0.857660
0.662615 0.530232 0.859034
0.788938 0.537000 0.860303
0.894495 0.542655 0.861364
0.968904 0.546641 0.862111
0.114832 0.651031 0.857830
0.189241 0.655018 0.858578
0.294799 0.660673 0.859638
0.421121 0.667440 0.860907
0.557826 0.674764 0.862281
0.694532 0.682088 0.863655
0.820854 0.688856 0.864924
0.926412 0.694511 0.865985
1.000000 0.698497 0.866732
0.144325 0.791354 0.862100
0.218734 0.795340 0.862847
0.324291 0.800995 0.863908
0.450614 0.807763 0.865177
0.587319 0.815086 0.866551
0.724024 0.822410 0.867925
0.850347 0.829178 0.869194
0.955904 0.834833 0.870254
1.000000 0.838819 0.871002
0.168969 0.908609 0.865668
0.243378 0.912595 0.866415
0.348936 0.918251 0.867476
0.475258 0.925018 0.868745
0.611964 0.932342 0.870119
0.748669 0.939666 0.871493
0.874992 0.946433 0.872762
0.980549 0.952089 0.873822
1.000000 0.956075 0.874570
0.186342 0.991265 0.868183
0.260751 0.995251 0.868931
0.366308 1.000000 0.869991
0.492631 1.000000 0.871261
0.629336 1.000000 0.872634
0.766041 1.000000 0.874008
0.892364 1.000000 0.875277
0.997921 1.000000 0.876338
1.000000 1.000000 0.877085
0.003969 0.061338 0.924083
0.077922 0.062733 0.923270
0.182831 0.064712 0.922117
0.308378 0.067080 0.920736
0.444245 0.069643 0.919242
0.580111 0.072206 0.917748
0.705658 0.074575 0.916368
0.810568 0.076554 0.915214
0.884520 0.077949 0.914401
0.019805 0.135276 0.921348
0.093758 0.136671 0.920535
0.198667 0.138650 0.919381
0.324214 0.141018 0.918001
0.460081 0.143581 0.916507
0.595947 0.146145 0.915013
0.721494 0.148513 0.913632
0.826404 0.150492 0.912479
0.900356 0.151887 0.911666
0.042270 0.240165 0.917467
0.116223 0.241560 0.916654
0.221132 0.243539 0.915501
0.346680 0.245908 0.914120
0.482546 0.248471 0.912626
0.618412 0.251034 0.911132
0.743316 0.253769 0.910793
0.845233 0.257455 0.914478
0.917076 0.260052 0.917076
0.069155 0.365688 0.912823
0.143107 0.367083 0.912010
0.248017 0.369062 0.910857
0.372205 0.372205 0.911673
0.504196 0.376978 0.916446
0.636187 0.381751 0.921219
0.758775 0.386498 0.925181
0.864332 0.392153 0.926242
0.938741 0.396140 0.926989
0.092536 0.504786 0.917036
0.164379 0.507384 0.919634
0.266296 0.511069 0.923319
0.390958 0.516939 0.925786
0.527663 0.524262 0.927159
0.664369 0.531586 0.928533
0.790691 0.538354 0.929802
0.896249 0.544009 0.930863
0.970658 0.547995 0.931610
0.116586 0.652385 0.927329
0.190995 0.656371 0.928077
0.296552 0.662027 0.929137
0.422875 0.668794 0.930406
0.559580 0.676118 0.931780
0.696286 0.683442 0.933154
0.822608 0.690209 0.934423
0.928165 0.695864 0.935484
1.000000 0.699851 0.936231
0.146078 0.792707 0.931599
0.220488 0.796694 0.932346
0.326045 0.802349 0.933407
0.452368 0.809116 0.934676
0.589073 0.816440 0.936050
0.725778 0.823764 0.937424
0.852101 0.830532 0.938693
0.957658 0.836187 0.939753
1.000000 0.840173 0.940501
0.170723 0.909963 0.935167
0.245132 0.913949 0.935914
0.350689 0.919604 0.936975
0.477012 0.926372 0.938244
0.613717 0.933696 0.939618
0.750423 0.941020 0.940992
0.876745 0.947787 0.942261
0.982303 0.953442 0.943321
1.000000 0.957429 0.944069
0.188095 0.992618 0.937682
0.262505 0.996605 0.938430
0.368062 1.000000 0.939490
0.494385 1.000000 0.940760
0.631090 1.000000 0.942133
0.767795 1.000000 0.943507
0.894118 1.000000 0.944776
0.999675 1.000000 0.945837
1.000000 1.000000 0.946584
