Tests/TestData/demo_lut_1.cube
# Demo LUT - Cinematic Teal & Orange
# Created for demonstration purposes
# Format: Adobe .cube
TITLE "Demo Cinematic Teal Orange"
LUT_3D_SIZE 5
DOMAIN_MIN 0.0 0.0 0.0
DOMAIN_MAX 1.0 1.0 1.0
0.000000 0.055696 0.102871
0.163796 0.059070 0.100905
0.425209 0.064002 0.098030
0.686623 0.068933 0.095156
0.865485 0.072308 0.093189
0.023235 0.234524 0.096255
0.202097 0.237898 0.094289
0.463511 0.242829 0.091414
0.724924 0.247761 0.088540
0.903786 0.251135 0.086573
0.079214 0.495887 0.086586
0.255791 0.500564 0.088314
0.509747 0.509747 0.097497
0.769810 0.522234 0.102279
0.949776 0.531876 0.104087
0.125196 0.776588 0.104076
0.305163 0.786229 0.105884
0.568191 0.800321 0.108527
0.831219 0.814412 0.111170
1.000000 0.824053 0.112978
0.167213 0.976499 0.110159
0.347180 0.986140 0.111967
0.610208 1.000000 0.114610
0.873236 1.000000 0.117253
1.000000 1.000000 0.119061
0.000000 0.056842 0.269680
0.167662 0.060216 0.267713
0.429076 0.065148 0.264839
0.690490 0.070079 0.261965
0.869352 0.073453 0.259998
0.027102 0.235670 0.263064
0.205964 0.239044 0.261097
0.467377 0.243975 0.258223
0.728791 0.248907 0.255349
0.907653 0.252281 0.253382
0.083080 0.497033 0.253395
0.257925 0.502698 0.257925
0.511881 0.511881 0.267108
0.774051 0.525508 0.270369
0.954018 0.535150 0.272178
0.129438 0.779862 0.272166
0.309405 0.789503 0.273974
0.572433 0.803595 0.276617
0.835461 0.817686 0.279260
1.000000 0.827328 0.281069
0.171455 0.979773 0.278249
0.351422 0.989415 0.280058
0.614450 1.000000 0.282701
0.877478 1.000000 0.285343
1.000000 1.000000 0.287152
0.000000 0.058517 0.513477
0.173313 0.061891 0.511511
0.434727 0.066823 0.508636
0.696141 0.071754 0.505762
0.875003 0.075128 0.503795
0.032753 0.237344 0.506861
0.211615 0.240719 0.504895
0.473028 0.245650 0.502020
0.734442 0.250582 0.499146
0.911823 0.254800 0.499573
0.087283 0.499533 0.499533
0.261043 0.505817 0.505817
0.517223 0.516203 0.513398
0.780250 0.530294 0.516040
0.960217 0.539935 0.517849
0.135637 0.784647 0.517837
0.315604 0.794289 0.519645
0.578632 0.808380 0.522288
0.841660 0.822472 0.524931
1.000000 0.832113 0.526739
0.177654 0.984559 0.523920
0.357621 0.994200 0.525729
0.620649 1.000000 0.528372
0.883677 1.000000 0.531014
1.000000 1.000000 0.532823
0.000102 0.060192 0.757275
0.178964 0.063566 0.755308
0.440378 0.068497 0.752434
0.701792 0.073429 0.749559
0.880654 0.076803 0.747593
0.038404 0.239019 0.750659
0.217266 0.242393 0.748692
0.478679 0.247325 0.745818
0.740093 0.252256 0.742943
0.914942 0.257919 0.747466
0.090402 0.502652 0.747425
0.264162 0.508935 0.753709
0.523422 0.520988 0.759068
0.786450 0.535079 0.761711
0.966416 0.544721 0.763520
0.141837 0.789433 0.763508
0.321803 0.799074 0.765316
0.584831 0.813166 0.767959
0.847859 0.827257 0.770602
1.000000 0.836899 0.772410
0.183854 0.989344 0.769591
0.363820 0.998986 0.771400
0.626848 1.000000 0.774042
0.889876 1.000000 0.776685
1.000000 1.000000 0.778494
0.003969 0.061338 0.924083
0.182831 0.064712 0.922117
0.444245 0.069643 0.919242
0.705658 0.074575 0.916368
0.884520 0.077949 0.914401
0.042270 0.240165 0.917467
0.221132 0.243539 0.915501
0.482546 0.248471 0.912626
0.743316 0.253769 0.910793
0.917076 0.260052 0.917076
0.092536 0.504786 0.917036
0.266296 0.511069 0.923319
0.527663 0.524262 0.927159
0.790691 0.538354 0.929802
0.970658 0.547995 0.931610
0.146078 0.792707 0.931599
0.326045 0.802349 0.933407
0.589073 0.816440 0.936050
0.852101 0.830532 0.938693
1.000000 0.840173 0.940501
0.188095 0.992618 0.937682
0.368062 1.000000 0.939490
0.631090 1.000000 0.942133
0.894118 1.000000 0.944776
1.000000 1.000000 0.946584
