Tests/TestData/demo_lut_1.cube
# Demo LUT - Cinematic Teal & Orange
# Created for demonstration purposes
# Format: Adobe .cube
TITLE "Demo Cinematic Teal Orange"
LUT_3D_SIZE 17
DOMAIN_MIN 0.0 0.0 0.0
DOMAIN_MAX 1.0 1.0 1.0
0.000000 0.055696 0.102871
0.017395 0.056309 0.102514
0.058886 0.057091 0.102058
0.108116 0.058020 0.101517
0.163796 0.059070 0.100905
0.224635 0.060218 0.100236
0.289343 0.061439 0.099524
0.356631 0.062708 0.098784
0.425209 0.064002 0.098030
0.493787 0.065296 0.097276
0.561076 0.066565 0.096536
0.625784 0.067786 0.095825
0.686623 0.068933 0.095156
0.742302 0.069984 0.094544
0.791532 0.070912 0.094002
0.833023 0.071695 0.093546
0.865485 0.072308 0.093189
0.000000 0.088152 0.101670
0.024347 0.088764 0.101314
0.065838 0.089547 0.100857
0.115068 0.090475 0.100316
0.170747 0.091526 0.099704
0.231586 0.092674 0.099035
0.296294 0.093894 0.098323
0.363583 0.095164 0.097584
0.432161 0.096457 0.096830
0.500739 0.097751 0.096075
0.568027 0.099020 0.095336
0.632735 0.100241 0.094624
0.693574 0.101389 0.093955
0.749254 0.102439 0.093343
0.798484 0.103368 0.092802
0.839975 0.104151 0.092345
0.872436 0.104763 0.091989
0.000770 0.129635 0.100136
0.033232 0.130247 0.099779
0.074722 0.131030 0.099323
0.123952 0.131958 0.098781
0.179632 0.133009 0.098169
0.240471 0.134156 0.097500
0.305179 0.135377 0.096789
0.372467 0.136646 0.096049
0.441045 0.137940 0.095295
0.509624 0.139234 0.094541
0.576912 0.140503 0.093801
0.641620 0.141724 0.093089
0.702459 0.142872 0.092420
0.758139 0.143922 0.091808
0.807369 0.144851 0.091267
0.848859 0.145633 0.090811
0.881321 0.146246 0.090454
0.011312 0.178855 0.098315
0.043774 0.179467 0.097958
0.085264 0.180250 0.097502
0.134494 0.181179 0.096960
0.190174 0.182229 0.096348
0.251013 0.183377 0.095679
0.315721 0.184598 0.094968
0.383009 0.185867 0.094228
0.451588 0.187161 0.093474
0.520166 0.188454 0.092720
0.587454 0.189724 0.091980
0.652162 0.190945 0.091268
0.713001 0.192092 0.090599
0.768681 0.193143 0.089987
0.817911 0.194071 0.089446
0.859401 0.194854 0.088990
0.891863 0.195466 0.088633
0.023235 0.234524 0.096255
0.055697 0.235136 0.095898
0.097188 0.235919 0.095442
0.146418 0.236848 0.094901
0.202097 0.237898 0.094289
0.262936 0.239046 0.093620
0.327644 0.240266 0.092908
0.394933 0.241536 0.092168
0.463511 0.242829 0.091414
0.532089 0.244123 0.090660
0.599377 0.245392 0.089920
0.664085 0.246613 0.089209
0.724924 0.247761 0.088540
0.780604 0.248811 0.087928
0.829834 0.249740 0.087386
0.871325 0.250523 0.086930
0.903786 0.251135 0.086573
0.036263 0.295351 0.094005
0.068725 0.295963 0.093648
0.110216 0.296746 0.093192
0.159446 0.297675 0.092650
0.215125 0.298725 0.092038
0.275964 0.299873 0.091369
0.340672 0.301093 0.090658
0.407961 0.302363 0.089918
0.476539 0.303657 0.089164
0.545117 0.304950 0.088410
0.612405 0.306220 0.087670
0.677113 0.307440 0.086959
0.737952 0.308588 0.086290
0.793632 0.309638 0.085677
0.841918 0.311105 0.086663
0.882225 0.312563 0.088120
0.913761 0.313703 0.089261
0.050120 0.360047 0.091611
0.082581 0.360659 0.091254
0.124072 0.361442 0.090798
0.173302 0.362371 0.090257
0.228982 0.363421 0.089645
0.289820 0.364569 0.088976
0.354529 0.365789 0.088264
0.421817 0.367059 0.087524
0.490395 0.368353 0.086770
0.558973 0.369646 0.086016
0.625682 0.371246 0.086214
0.688544 0.373519 0.088487
0.747648 0.375657 0.090624
0.801739 0.377613 0.092580
0.849565 0.379342 0.094310
0.889872 0.380800 0.095767
0.921408 0.381940 0.096908
0.064529 0.427322 0.089122
0.096990 0.427935 0.088766
0.138481 0.428717 0.088309
0.187711 0.429646 0.087768
0.243391 0.430696 0.087156
0.304229 0.431844 0.086487
0.368938 0.433065 0.085775
0.435021 0.435021 0.086984
0.501643 0.437430 0.089393
0.568265 0.439839 0.091802
0.633634 0.442203 0.094166
0.696496 0.444476 0.096439
0.755600 0.446614 0.098576
0.809723 0.448587 0.100509
0.859257 0.451241 0.101007
0.901004 0.453477 0.101426
0.933666 0.455227 0.101755
0.079214 0.495887 0.086586
0.111676 0.496499 0.086229
0.153166 0.497282 0.085773
0.201700 0.498608 0.086358
0.255791 0.500564 0.088314
0.314894 0.502701 0.090451
0.377757 0.504975 0.092725
0.443126 0.507338 0.095088
0.509747 0.509747 0.097497
0.576369 0.512157 0.099907
0.643487 0.515467 0.101009
0.708595 0.518955 0.101664
0.769810 0.522234 0.102279
0.825833 0.525236 0.102842
0.875367 0.527889 0.103339
0.917114 0.530126 0.103759
0.949776 0.531876 0.104087
0.090135 0.566598 0.090135
0.121671 0.567738 0.091276
0.161978 0.569196 0.092733
0.209804 0.570925 0.094463
0.263895 0.572881 0.096419
0.322999 0.575019 0.098556
0.386186 0.577468 0.100595
0.453890 0.581095 0.101275
0.522891 0.584791 0.101968
0.591893 0.588488 0.102662
0.659597 0.592115 0.103342
0.724705 0.595603 0.103996
0.785919 0.598883 0.104611
0.841943 0.601884 0.105174
0.891477 0.604538 0.105672
0.933224 0.606774 0.106091
0.965886 0.608524 0.106419
0.098087 0.637555 0.098087
0.129623 0.638695 0.099228
0.170113 0.640252 0.100553
0.219647 0.642906 0.101051
0.275670 0.645907 0.101614
0.336885 0.649186 0.102229
0.401993 0.652674 0.102883
0.469697 0.656302 0.103563
0.538698 0.659998 0.104257
0.607700 0.663695 0.104950
0.675404 0.667322 0.105630
0.740512 0.670810 0.106285
0.801726 0.674090 0.106900
0.857749 0.677091 0.107463
0.907284 0.679745 0.107960
0.949031 0.681981 0.108380
0.981693 0.683731 0.108708
0.110905 0.708589 0.102006
0.143567 0.710339 0.102335
0.185314 0.712575 0.102754
0.234848 0.715229 0.103252
0.290871 0.718231 0.103815
0.352086 0.721510 0.104430
0.417194 0.724998 0.105084
0.484898 0.728625 0.105764
0.553899 0.732322 0.106458
0.622901 0.736019 0.107151
0.690604 0.739646 0.107831
0.755713 0.743134 0.108485
0.816927 0.746413 0.109100
0.872950 0.749415 0.109663
0.922484 0.752068 0.110161
0.964231 0.754305 0.110581
0.996894 0.756055 0.110909
0.125196 0.776588 0.104076
0.157859 0.778338 0.104404
0.199606 0.780574 0.104823
0.249140 0.783228 0.105321
0.305163 0.786229 0.105884
0.366378 0.789509 0.106499
0.431486 0.792997 0.107153
0.499189 0.796624 0.107833
0.568191 0.800321 0.108527
0.637193 0.804017 0.109220
0.704896 0.807644 0.109900
0.770004 0.811133 0.110554
0.831219 0.814412 0.111170
0.887242 0.817413 0.111732
0.936776 0.820067 0.112230
0.978523 0.822304 0.112650
1.000000 0.824053 0.112978
0.138276 0.838820 0.105969
0.170938 0.840569 0.106297
0.212686 0.842806 0.106717
0.262220 0.845460 0.107215
0.318243 0.848461 0.107778
0.379457 0.851741 0.108393
0.444565 0.855229 0.109047
0.512269 0.858856 0.109727
0.581271 0.862553 0.110420
0.650272 0.866249 0.111114
0.717976 0.869876 0.111794
0.783084 0.873364 0.112448
0.844299 0.876644 0.113063
0.900322 0.879645 0.113626
0.949856 0.882299 0.114124
0.991603 0.884536 0.114543
1.000000 0.886285 0.114872
0.149841 0.893843 0.107644
0.182503 0.895593 0.107972
0.224250 0.897830 0.108391
0.273784 0.900483 0.108889
0.329808 0.903485 0.109452
0.391022 0.906764 0.110067
0.456130 0.910252 0.110721
0.523834 0.913879 0.111401
0.592836 0.917576 0.112095
0.661837 0.921273 0.112788
0.729541 0.924900 0.113468
0.794649 0.928388 0.114123
0.855863 0.931668 0.114738
0.911887 0.934669 0.115301
0.961421 0.937323 0.115798
1.000000 0.939559 0.116218
1.000000 0.941309 0.116546
0.159588 0.940217 0.109055
0.192250 0.941967 0.109383
0.233997 0.944203 0.109802
0.283531 0.946857 0.110300
0.339554 0.949858 0.110863
0.400769 0.953138 0.111478
0.465877 0.956626 0.112132
0.533581 0.960253 0.112813
0.602582 0.963950 0.113506
0.671584 0.967646 0.114199
0.739288 0.971274 0.114879
0.804396 0.974762 0.115534
0.865610 0.978041 0.116149
0.921633 0.981043 0.116712
0.971167 0.983696 0.117209
1.000000 0.985933 0.117629
1.000000 0.987683 0.117957
0.167213 0.976499 0.110159
0.199876 0.978249 0.110487
0.241623 0.980485 0.110906
0.291157 0.983139 0.111404
0.347180 0.986140 0.111967
0.408395 0.989420 0.112582
0.473503 0.992908 0.113236
0.541206 0.996535 0.113917
0.610208 1.000000 0.114610
0.679209 1.000000 0.115303
0.746913 1.000000 0.115983
0.812021 1.000000 0.116638
0.873236 1.000000 0.117253
0.929259 1.000000 0.117816
0.978793 1.000000 0.118313
1.000000 1.000000 0.118733
1.000000 1.000000 0.119061
0.000000 0.055904 0.133145
0.018097 0.056517 0.132788
0.059588 0.057299 0.132332
0.108818 0.058228 0.131791
0.164497 0.059278 0.131179
0.225336 0.060426 0.130510
0.290045 0.061647 0.129798
0.357333 0.062916 0.129058
0.425911 0.064210 0.128304
0.494489 0.065504 0.127550
0.561777 0.066773 0.126811
0.626486 0.067994 0.126099
0.687325 0.069141 0.125430
0.743004 0.070192 0.124818
0.792234 0.071120 0.124277
0.833725 0.071903 0.123820
0.866187 0.072516 0.123463
0.000000 0.088360 0.131945
0.025049 0.088972 0.131588
0.066539 0.089755 0.131132
0.115769 0.090683 0.130590
0.171449 0.091734 0.129978
0.232288 0.092882 0.129309
0.296996 0.094102 0.128598
0.364284 0.095372 0.127858
0.432862 0.096665 0.127104
0.501441 0.097959 0.126350
0.568729 0.099228 0.125610
0.633437 0.100449 0.124898
0.694276 0.101597 0.124229
0.749955 0.102647 0.123617
0.799186 0.103576 0.123076
0.840676 0.104359 0.122620
0.873138 0.104971 0.122263
0.001472 0.129842 0.130410
0.033933 0.130455 0.130053
0.075424 0.131238 0.129597
0.124654 0.132166 0.129056
0.180334 0.133217 0.128443
0.241172 0.134364 0.127774
0.305881 0.135585 0.127063
0.373169 0.136854 0.126323
0.441747 0.138148 0.125569
0.510325 0.139442 0.124815
0.577614 0.140711 0.124075
0.642322 0.141932 0.123364
0.703161 0.143080 0.122695
0.758840 0.144130 0.122082
0.808070 0.145059 0.121541
0.849561 0.145841 0.121085
0.882023 0.146454 0.120728
0.012014 0.179063 0.128589
0.044475 0.179675 0.128232
0.085966 0.180458 0.127776
0.135196 0.181387 0.127235
0.190876 0.182437 0.126622
0.251714 0.183585 0.125953
0.316423 0.184806 0.125242
0.383711 0.186075 0.124502
0.452289 0.187369 0.123748
0.520867 0.188662 0.122994
0.588156 0.189932 0.122254
0.652864 0.191152 0.121543
0.713703 0.192300 0.120874
0.769382 0.193351 0.120261
0.818612 0.194279 0.119720
0.860103 0.195062 0.119264
0.892565 0.195674 0.118907
0.023937 0.234732 0.126529
0.056398 0.235344 0.126173
0.097889 0.236127 0.125716
0.147119 0.237056 0.125175
0.202799 0.238106 0.124563
0.263638 0.239254 0.123894
0.328346 0.240474 0.123182
0.395634 0.241744 0.122443
0.464212 0.243037 0.121688
0.532790 0.244331 0.120934
0.600079 0.245600 0.120195
0.664787 0.246821 0.119483
0.725626 0.247969 0.118814
0.781305 0.249019 0.118202
0.830535 0.249948 0.117661
0.872026 0.250731 0.117204
0.904488 0.251343 0.116847
0.036965 0.295559 0.124279
0.069426 0.296171 0.123922
0.110917 0.296954 0.123466
0.160147 0.297883 0.122925
0.215827 0.298933 0.122312
0.276666 0.300081 0.121643
0.341374 0.301301 0.120932
0.408662 0.302571 0.120192
0.477240 0.303865 0.119438
0.545818 0.305158 0.118684
0.613107 0.306428 0.117944
0.677815 0.307648 0.117233
0.738654 0.308796 0.116564
0.794333 0.309846 0.115952
0.842305 0.311493 0.117445
0.882612 0.312950 0.118903
0.914148 0.314091 0.120043
0.050821 0.360255 0.121886
0.083283 0.360867 0.121529
0.124774 0.361650 0.121072
0.174004 0.362579 0.120531
0.229683 0.363629 0.119919
0.290522 0.364777 0.119250
0.355231 0.365997 0.118538
0.422519 0.367267 0.117799
0.491097 0.368561 0.117045
0.559675 0.369854 0.116291
0.626069 0.371633 0.116997
0.688932 0.373907 0.119270
0.748035 0.376044 0.121407
0.802126 0.378000 0.123363
0.849952 0.379729 0.125092
0.890259 0.381187 0.126550
0.921795 0.382327 0.127690
0.065230 0.427530 0.119397
0.097692 0.428142 0.119040
0.139183 0.428925 0.118584
0.188413 0.429854 0.118042
0.244092 0.430904 0.117430
0.304931 0.432052 0.116761
0.369640 0.433273 0.116050
0.435408 0.435408 0.117767
0.502030 0.437818 0.120176
0.568652 0.440227 0.122585
0.634021 0.442590 0.124949
0.696884 0.444864 0.127222
0.755987 0.447001 0.129359
0.810493 0.449181 0.131016
0.860027 0.451835 0.131514
0.901774 0.454071 0.131933
0.934436 0.455821 0.132262
0.079916 0.496095 0.116860
0.112377 0.496707 0.116503
0.153868 0.497490 0.116047
0.202087 0.498995 0.117141
0.256178 0.500951 0.119097
0.315281 0.503089 0.121234
0.378144 0.505362 0.123507
0.443513 0.507726 0.125871
0.510135 0.510135 0.128280
0.576757 0.512544 0.130689
0.644257 0.516061 0.131516
0.709365 0.519549 0.132171
0.770579 0.522828 0.132786
0.826603 0.525830 0.133349
0.876137 0.528483 0.133846
0.917884 0.530720 0.134266
0.950546 0.532470 0.134594
0.090522 0.566985 0.120918
0.122058 0.568126 0.122058
0.162366 0.569583 0.123516
0.210191 0.571313 0.125245
0.264282 0.573269 0.127201
0.323386 0.575406 0.129338
0.386956 0.578062 0.131102
0.454660 0.581689 0.131782
0.523661 0.585386 0.132475
0.592663 0.589082 0.133168
0.660367 0.592709 0.133849
0.725475 0.596198 0.134503
0.786689 0.599477 0.135118
0.842712 0.602478 0.135681
0.892246 0.605132 0.136179
0.933994 0.607369 0.136598
0.966656 0.609119 0.136926
0.098474 0.637942 0.128870
0.130010 0.639083 0.130010
0.170883 0.640846 0.131060
0.220417 0.643500 0.131558
0.276440 0.646501 0.132121
0.337655 0.649781 0.132736
0.402763 0.653269 0.133390
0.470467 0.656896 0.134070
0.539468 0.660593 0.134764
0.608470 0.664289 0.135457
0.676173 0.667916 0.136137
0.741281 0.671404 0.136791
0.802496 0.674684 0.137406
0.858519 0.677685 0.137969
0.908053 0.680339 0.138467
0.949800 0.682576 0.138887
0.982463 0.684325 0.139215
0.111674 0.709183 0.132513
0.144337 0.710933 0.132841
0.186084 0.713170 0.133261
0.235618 0.715823 0.133759
0.291641 0.718825 0.134322
0.352856 0.722104 0.134937
0.417964 0.725592 0.135591
0.485667 0.729220 0.136271
0.554669 0.732916 0.136964
0.623671 0.736613 0.137658
0.691374 0.740240 0.138338
0.756482 0.743728 0.138992
0.817697 0.747008 0.139607
0.873720 0.750009 0.140170
0.923254 0.752663 0.140668
0.965001 0.754899 0.141087
0.997663 0.756649 0.141416
0.125966 0.777182 0.134582
0.158628 0.778932 0.134911
0.200376 0.781168 0.135330
0.249910 0.783822 0.135828
0.305933 0.786823 0.136391
0.367147 0.790103 0.137006
0.432255 0.793591 0.137660
0.499959 0.797218 0.138340
0.568961 0.800915 0.139034
0.637962 0.804612 0.139727
0.705666 0.808239 0.140407
0.770774 0.811727 0.141061
0.831989 0.815006 0.141676
0.888012 0.818008 0.142239
0.937546 0.820661 0.142737
0.979293 0.822898 0.143157
1.000000 0.824648 0.143485
0.139046 0.839414 0.136476
0.171708 0.841164 0.136804
0.213455 0.843400 0.137224
0.262989 0.846054 0.137721
0.319013 0.849055 0.138284
0.380227 0.852335 0.138899
0.445335 0.855823 0.139554
0.513039 0.859450 0.140234
0.582041 0.863147 0.140927
0.651042 0.866843 0.141621
0.718746 0.870471 0.142301
0.783854 0.873959 0.142955
0.845069 0.877238 0.143570
0.901092 0.880240 0.144133
0.950626 0.882893 0.144631
0.992373 0.885130 0.145050
1.000000 0.886880 0.145378
0.150611 0.894438 0.138150
0.183273 0.896187 0.138479
0.225020 0.898424 0.138898
0.274554 0.901078 0.139396
0.330577 0.904079 0.139959
0.391792 0.907359 0.140574
0.456900 0.910847 0.141228
0.524604 0.914474 0.141908
0.593605 0.918170 0.142602
0.662607 0.921867 0.143295
0.730311 0.925494 0.143975
0.795419 0.928982 0.144629
0.856633 0.932262 0.145244
0.912657 0.935263 0.145807
0.962191 0.937917 0.146305
1.000000 0.940154 0.146725
1.000000 0.941903 0.147053
0.160358 0.940811 0.139562
0.193020 0.942561 0.139890
0.234767 0.944798 0.140309
0.284301 0.947451 0.140807
0.340324 0.950453 0.141370
0.401539 0.953732 0.141985
0.466647 0.957220 0.142639
0.534350 0.960847 0.143319
0.603352 0.964544 0.144013
0.672354 0.968241 0.144706
0.740057 0.971868 0.145386
0.805165 0.975356 0.146040
0.866380 0.978635 0.146656
0.922403 0.981637 0.147218
0.971937 0.984291 0.147716
1.000000 0.986527 0.148136
1.000000 0.988277 0.148464
0.167983 0.977093 0.140666
0.200645 0.978843 0.140994
0.242392 0.981079 0.141413
0.291927 0.983733 0.141911
0.347950 0.986735 0.142474
0.409164 0.990014 0.143089
0.474272 0.993502 0.143743
0.541976 0.997129 0.144423
0.610978 1.000000 0.145117
0.679979 1.000000 0.145810
0.747683 1.000000 0.146490
0.812791 1.000000 0.147145
0.874006 1.000000 0.147760
0.930029 1.000000 0.148323
0.979563 1.000000 0.148820
1.000000 1.000000 0.149240
1.000000 1.000000 0.149568
0.000000 0.056170 0.171840
0.018994 0.056782 0.171483
0.060485 0.057565 0.171027
0.109715 0.058494 0.170486
0.165394 0.059544 0.169874
0.226233 0.060692 0.169205
0.290942 0.061913 0.168493
0.358230 0.063182 0.167753
0.426808 0.064476 0.166999
0.495386 0.065769 0.166245
0.562674 0.067039 0.165505
0.627383 0.068259 0.164794
0.688222 0.069407 0.164125
0.743901 0.070458 0.163513
0.793131 0.071386 0.162971
0.834622 0.072169 0.162515
0.867084 0.072781 0.162158
0.000000 0.088625 0.170639
0.025945 0.089238 0.170283
0.067436 0.090021 0.169826
0.116666 0.090949 0.169285
0.172346 0.092000 0.168673
0.233185 0.093147 0.168004
0.297893 0.094368 0.167292
0.365181 0.095637 0.166553
0.433759 0.096931 0.165798
0.502337 0.098225 0.165044
0.569626 0.099494 0.164305
0.634334 0.100715 0.163593
0.695173 0.101863 0.162924
0.750852 0.102913 0.162312
0.800082 0.103842 0.161771
0.841573 0.104624 0.161314
0.874035 0.105237 0.160957
0.002368 0.130108 0.169105
0.034830 0.130721 0.168748
0.076321 0.131503 0.168292
0.125551 0.132432 0.167750
0.181230 0.133482 0.167138
0.242069 0.134630 0.166469
0.306778 0.135851 0.165758
0.374066 0.137120 0.165018
0.442644 0.138414 0.164264
0.511222 0.139708 0.163510
0.578510 0.140977 0.162770
0.643219 0.142198 0.162058
0.704058 0.143345 0.161389
0.759737 0.144396 0.160777
0.808967 0.145325 0.160236
0.850458 0.146107 0.159780
0.882920 0.146720 0.159423
0.012911 0.179329 0.167284
0.045372 0.179941 0.166927
0.086863 0.180724 0.166471
0.136093 0.181653 0.165929
0.191773 0.182703 0.165317
0.252611 0.183851 0.164648
0.317320 0.185071 0.163937
0.384608 0.186341 0.163197
0.453186 0.187635 0.162443
0.521764 0.188928 0.161689
0.589053 0.190198 0.160949
0.653761 0.191418 0.160237
0.714600 0.192566 0.159568
0.770279 0.193616 0.158956
0.819509 0.194545 0.158415
0.861000 0.195328 0.157959
0.893462 0.195940 0.157602
0.024834 0.234998 0.165224
0.057295 0.235610 0.164867
0.098786 0.236393 0.164411
0.148016 0.237321 0.163870
0.203696 0.238372 0.163258
0.264535 0.239519 0.162589
0.329243 0.240740 0.161877
0.396531 0.242009 0.161137
0.465109 0.243303 0.160383
0.533687 0.244597 0.159629
0.600976 0.245866 0.158889
0.665684 0.247087 0.158178
0.726523 0.248235 0.157509
0.782202 0.249285 0.156897
0.831432 0.250214 0.156355
0.872923 0.250996 0.155899
0.905385 0.251609 0.155542
0.037862 0.295825 0.162974
0.070323 0.296437 0.162617
0.111814 0.297220 0.162161
0.161044 0.298148 0.161619
0.216724 0.299199 0.161007
0.277562 0.300347 0.160338
0.342271 0.301567 0.159627
0.409559 0.302837 0.158887
0.478137 0.304130 0.158133
0.546715 0.305424 0.157379
0.614004 0.306693 0.156639
0.678712 0.307914 0.155928
0.739551 0.309062 0.155259
0.794974 0.310258 0.155061
0.842800 0.311988 0.156790
0.883107 0.313445 0.158248
0.914643 0.314586 0.159388
0.051718 0.360521 0.160580
0.084180 0.361133 0.160223
0.125671 0.361916 0.159767
0.174901 0.362844 0.159226
0.230580 0.363895 0.158614
0.291419 0.365043 0.157945
0.356128 0.366263 0.157233
0.423416 0.367533 0.156493
0.491994 0.368826 0.155739
0.560572 0.370120 0.154985
0.626564 0.372128 0.156341
0.689427 0.374402 0.158615
0.748530 0.376539 0.160752
0.802621 0.378495 0.162708
0.850447 0.380224 0.164437
0.890754 0.381682 0.165895
0.922290 0.382822 0.167035
0.066127 0.427796 0.158091
0.098589 0.428408 0.157735
0.140080 0.429191 0.157278
0.189310 0.430120 0.156737
0.244989 0.431170 0.156125
0.305828 0.432318 0.155456
0.370535 0.433540 0.154748
0.435903 0.435903 0.157111
0.502525 0.438313 0.159520
0.569147 0.440722 0.161930
0.634516 0.443085 0.164293
0.697379 0.445359 0.166567
0.756482 0.447496 0.168704
0.811477 0.449941 0.170008
0.861011 0.452594 0.170506
0.902758 0.454831 0.170926
0.935420 0.456581 0.171254
0.080812 0.496361 0.155555
0.113274 0.496973 0.155198
0.154756 0.497761 0.154756
0.202582 0.499490 0.156486
0.256673 0.501446 0.158442
0.315776 0.503584 0.160579
0.378639 0.505857 0.162852
0.444008 0.508221 0.165216
0.510630 0.510630 0.167625
0.577537 0.513193 0.169828
0.645241 0.516820 0.170509
0.710349 0.520308 0.171163
0.771563 0.523588 0.171778
0.827587 0.526589 0.172341
0.877121 0.529243 0.172838
0.918868 0.531480 0.173258
0.951530 0.533229 0.173586
0.091017 0.567480 0.160263
0.122553 0.568621 0.161403
0.162861 0.570078 0.162861
0.210686 0.571808 0.164590
0.264777 0.573764 0.166546
0.323881 0.575901 0.168683
0.387940 0.578821 0.170094
0.455644 0.582448 0.170774
0.524645 0.586145 0.171467
0.593647 0.589842 0.172161
0.661351 0.593469 0.172841
0.726459 0.596957 0.173495
0.787673 0.600237 0.174110
0.843696 0.603238 0.174673
0.893230 0.605892 0.175171
0.934977 0.608128 0.175590
0.967640 0.609878 0.175918
0.098969 0.638437 0.168215
0.130505 0.639578 0.169355
0.171867 0.641606 0.170052
0.221401 0.644259 0.170550
0.277424 0.647261 0.171113
0.338639 0.650540 0.171728
0.403747 0.654028 0.172382
0.471450 0.657655 0.173062
0.540452 0.661352 0.173756
0.609454 0.665049 0.174449
0.677157 0.668676 0.175129
0.742265 0.672164 0.175784
0.803480 0.675444 0.176399
0.859503 0.678445 0.176962
0.909037 0.681099 0.177459
0.950784 0.683335 0.177879
0.983446 0.685085 0.178207
0.112658 0.709943 0.171505
0.145321 0.711693 0.171834
0.187068 0.713929 0.172253
0.236602 0.716583 0.172751
0.292625 0.719584 0.173314
0.353839 0.722864 0.173929
0.418948 0.726352 0.174583
0.486651 0.729979 0.175263
0.555653 0.733676 0.175957
0.624654 0.737372 0.176650
0.692358 0.741000 0.177330
0.757466 0.744488 0.177984
0.818681 0.747767 0.178599
0.874704 0.750769 0.179162
0.924238 0.753422 0.179660
0.965985 0.755659 0.180080
0.998647 0.757409 0.180408
0.126950 0.777941 0.173575
0.159612 0.779691 0.173903
0.201359 0.781928 0.174322
0.250894 0.784582 0.174820
0.306917 0.787583 0.175383
0.368131 0.790862 0.175998
0.433239 0.794351 0.176652
0.500943 0.797978 0.177332
0.569945 0.801674 0.178026
0.638946 0.805371 0.178719
0.706650 0.808998 0.179399
0.771758 0.812486 0.180054
0.832973 0.815766 0.180669
0.888996 0.818767 0.181232
0.938530 0.821421 0.181729
0.980277 0.823657 0.182149
1.000000 0.825407 0.182477
0.140030 0.840173 0.175468
0.172692 0.841923 0.175796
0.214439 0.844160 0.176216
0.263973 0.846814 0.176714
0.319997 0.849815 0.177277
0.381211 0.853094 0.177892
0.446319 0.856583 0.178546
0.514023 0.860210 0.179226
0.583025 0.863906 0.179919
0.652026 0.867603 0.180613
0.719730 0.871230 0.181293
0.784838 0.874718 0.181947
0.846052 0.877998 0.182562
0.902076 0.880999 0.183125
0.951610 0.883653 0.183623
0.993357 0.885889 0.184042
1.000000 0.887639 0.184371
0.151595 0.895197 0.177143
0.184257 0.896947 0.177471
0.226004 0.899183 0.177890
0.275538 0.901837 0.178388
0.331561 0.904839 0.178951
0.392776 0.908118 0.179566
0.457884 0.911606 0.180220
0.525588 0.915233 0.180900
0.594589 0.918930 0.181594
0.663591 0.922627 0.182287
0.731295 0.926254 0.182967
0.796403 0.929742 0.183622
0.857617 0.933021 0.184237
0.913640 0.936023 0.184800
0.963174 0.938676 0.185297
1.000000 0.940913 0.185717
1.000000 0.942663 0.186045
0.161342 0.941571 0.178554
0.194004 0.943321 0.178882
0.235751 0.945557 0.179301
0.285285 0.948211 0.179799
0.341308 0.951212 0.180362
0.402523 0.954492 0.180977
0.467631 0.957980 0.181631
0.535334 0.961607 0.182312
0.604336 0.965304 0.183005
0.673338 0.969000 0.183698
0.741041 0.972627 0.184378
0.806149 0.976116 0.185033
0.867364 0.979395 0.185648
0.923387 0.982396 0.186211
0.972921 0.985050 0.186708
1.000000 0.987287 0.187128
1.000000 0.989037 0.187456
0.168967 0.977853 0.179658
0.201629 0.979602 0.179986
0.243376 0.981839 0.180405
0.292910 0.984493 0.180903
0.348934 0.987494 0.181466
0.410148 0.990774 0.182081
0.475256 0.994262 0.182735
0.542960 0.997889 0.183416
0.611962 1.000000 0.184109
0.680963 1.000000 0.184802
0.748667 1.000000 0.185482
0.813775 1.000000 0.186137
0.874990 1.000000 0.186752
0.931013 1.000000 0.187315
0.980547 1.000000 0.187812
1.000000 1.000000 0.188232
1.000000 1.000000 0.188560
0.000000 0.056485 0.217753
0.020058 0.057098 0.217396
0.061549 0.057880 0.216940
0.110779 0.058809 0.216398
0.166459 0.059860 0.215786
0.227297 0.061007 0.215117
0.292006 0.062228 0.214406
0.359294 0.063497 0.213666
0.427872 0.064791 0.212912
0.496450 0.066085 0.212158
0.563739 0.067354 0.211418
0.628447 0.068575 0.210706
0.689286 0.069723 0.210037
0.744965 0.070773 0.209425
