Tests/TestData/strong_test_lut.cube
# Strong Test LUT - Dramatic effect
TITLE "Strong Test LUT"
LUT_3D_SIZE 9
DOMAIN_MIN 0.0 0.0 0.0
DOMAIN_MAX 1.0 1.0 1.0
0.150000 0.000000 0.000000
0.275000 0.000000 0.000000
0.400000 0.000000 0.000000
0.525000 0.000000 0.000000
0.650000 0.000000 0.000000
0.775000 0.000000 0.000000
0.900000 0.000000 0.000000
1.000000 0.000000 0.000000
1.000000 0.000000 0.000000
0.150000 0.125000 0.000000
0.275000 0.125000 0.000000
0.400000 0.125000 0.000000
0.525000 0.125000 0.000000
0.650000 0.125000 0.000000
0.775000 0.125000 0.000000
0.900000 0.125000 0.000000
1.000000 0.125000 0.000000
1.000000 0.125000 0.000000
0.150000 0.250000 0.000000
0.275000 0.250000 0.000000
0.400000 0.250000 0.000000
0.525000 0.250000 0.000000
0.650000 0.250000 0.000000
0.775000 0.250000 0.000000
0.900000 0.250000 0.000000
1.000000 0.250000 0.000000
1.000000 0.250000 0.000000
0.150000 0.375000 0.000000
0.275000 0.375000 0.000000
0.400000 0.375000 0.000000
0.525000 0.375000 0.000000
0.650000 0.375000 0.000000
0.775000 0.375000 0.000000
0.900000 0.375000 0.000000
1.000000 0.375000 0.000000
1.000000 0.375000 0.000000
0.150000 0.500000 0.000000
0.275000 0.500000 0.000000
0.400000 0.500000 0.000000
0.525000 0.500000 0.000000
0.650000 0.500000 0.000000
0.775000 0.500000 0.000000
0.900000 0.500000 0.000000
1.000000 0.500000 0.000000
1.000000 0.500000 0.000000
0.150000 0.625000 0.000000
0.275000 0.625000 0.000000
0.400000 0.625000 0.000000
0.525000 0.625000 0.000000
0.650000 0.625000 0.000000
0.775000 0.625000 0.000000
0.900000 0.625000 0.000000
1.000000 0.625000 0.000000
1.000000 0.625000 0.000000
0.150000 0.750000 0.000000
0.275000 0.750000 0.000000
0.400000 0.750000 0.000000
0.525000 0.750000 0.000000
0.650000 0.750000 0.000000
0.775000 0.750000 0.000000
0.900000 0.750000 0.000000
1.000000 0.750000 0.000000
1.000000 0.750000 0.000000
0.150000 0.875000 0.000000
0.275000 0.875000 0.000000
0.400000 0.875000 0.000000
0.525000 0.875000 0.000000
0.650000 0.875000 0.000000
0.775000 0.875000 0.000000
0.900000 0.875000 0.000000
1.000000 0.875000 0.000000
1.000000 0.875000 0.000000
0.150000 1.000000 0.000000
0.275000 1.000000 0.000000
0.400000 1.000000 0.000000
0.525000 1.000000 0.000000
0.650000 1.000000 0.000000
0.775000 1.000000 0.000000
0.900000 1.000000 0.000000
1.000000 1.000000 0.000000
1.000000 1.000000 0.000000
0.150000 0.000000 0.000000
0.275000 0.000000 0.000000
0.400000 0.000000 0.000000
0.525000 0.000000 0.000000
0.650000 0.000000 0.000000
0.775000 0.000000 0.000000
0.900000 0.000000 0.000000
1.000000 0.000000 0.000000
1.000000 0.000000 0.000000
0.150000 0.125000 0.000000
0.275000 0.125000 0.000000
0.400000 0.125000 0.000000
0.525000 0.125000 0.000000
0.650000 0.125000 0.000000
0.775000 0.125000 0.000000
0.900000 0.125000 0.000000
1.000000 0.125000 0.000000
1.000000 0.125000 0.000000
0.150000 0.250000 0.000000
0.275000 0.250000 0.000000
0.400000 0.250000 0.000000
0.525000 0.250000 0.000000
0.650000 0.250000 0.000000
0.775000 0.250000 0.000000
0.900000 0.250000 0.000000
1.000000 0.250000 0.000000
1.000000 0.250000 0.000000
0.150000 0.375000 0.000000
0.275000 0.375000 0.000000
0.400000 0.375000 0.000000
0.525000 0.375000 0.000000
0.650000 0.375000 0.000000
0.775000 0.375000 0.000000
0.900000 0.375000 0.000000
1.000000 0.375000 0.000000
1.000000 0.375000 0.000000
0.150000 0.500000 0.000000
0.275000 0.500000 0.000000
0.400000 0.500000 0.000000
0.525000 0.500000 0.000000
0.650000 0.500000 0.000000
0.775000 0.500000 0.000000
0.900000 0.500000 0.000000
1.000000 0.500000 0.000000
1.000000 0.500000 0.000000
0.150000 0.625000 0.000000
0.275000 0.625000 0.000000
0.400000 0.625000 0.000000
0.525000 0.625000 0.000000
0.650000 0.625000 0.000000
0.775000 0.625000 0.000000
0.900000 0.625000 0.000000
1.000000 0.625000 0.000000
1.000000 0.625000 0.000000
0.150000 0.750000 0.000000
0.275000 0.750000 0.000000
0.400000 0.750000 0.000000
0.525000 0.750000 0.000000
0.650000 0.750000 0.000000
0.775000 0.750000 0.000000
0.900000 0.750000 0.000000
1.000000 0.750000 0.000000
1.000000 0.750000 0.000000
0.150000 0.875000 0.000000
0.275000 0.875000 0.000000
0.400000 0.875000 0.000000
0.525000 0.875000 0.000000
0.650000 0.875000 0.000000
0.775000 0.875000 0.000000
0.900000 0.875000 0.000000
1.000000 0.875000 0.000000
1.000000 0.875000 0.000000
0.150000 1.000000 0.000000
0.275000 1.000000 0.000000
0.400000 1.000000 0.000000
0.525000 1.000000 0.000000
0.650000 1.000000 0.000000
0.775000 1.000000 0.000000
0.900000 1.000000 0.000000
1.000000 1.000000 0.000000
1.000000 1.000000 0.000000
0.150000 0.000000 0.100000
0.275000 0.000000 0.100000
0.400000 0.000000 0.100000
0.525000 0.000000 0.100000
0.650000 0.000000 0.100000
0.775000 0.000000 0.100000
0.900000 0.000000 0.100000
1.000000 0.000000 0.100000
1.000000 0.000000 0.100000
0.150000 0.125000 0.100000
0.275000 0.125000 0.100000
0.400000 0.125000 0.100000
0.525000 0.125000 0.100000
0.650000 0.125000 0.100000
0.775000 0.125000 0.100000
0.900000 0.125000 0.100000
1.000000 0.125000 0.100000
1.000000 0.125000 0.100000
0.150000 0.250000 0.100000
0.275000 0.250000 0.100000
0.400000 0.250000 0.100000
0.525000 0.250000 0.100000
0.650000 0.250000 0.100000
0.775000 0.250000 0.100000
0.900000 0.250000 0.100000
1.000000 0.250000 0.100000
1.000000 0.250000 0.100000
0.150000 0.375000 0.100000
0.275000 0.375000 0.100000
0.400000 0.375000 0.100000
0.525000 0.375000 0.100000
0.650000 0.375000 0.100000
0.775000 0.375000 0.100000
0.900000 0.375000 0.100000
1.000000 0.375000 0.100000
1.000000 0.375000 0.100000
0.150000 0.500000 0.100000
0.275000 0.500000 0.100000
0.400000 0.500000 0.100000
0.525000 0.500000 0.100000
0.650000 0.500000 0.100000
0.775000 0.500000 0.100000
0.900000 0.500000 0.100000
1.000000 0.500000 0.100000
1.000000 0.500000 0.100000
0.150000 0.625000 0.100000
0.275000 0.625000 0.100000
0.400000 0.625000 0.100000
0.525000 0.625000 0.100000
0.650000 0.625000 0.100000
0.775000 0.625000 0.100000
0.900000 0.625000 0.100000
1.000000 0.625000 0.100000
1.000000 0.625000 0.100000
0.150000 0.750000 0.100000
0.275000 0.750000 0.100000
0.400000 0.750000 0.100000
0.525000 0.750000 0.100000
0.650000 0.750000 0.100000
0.775000 0.750000 0.100000
0.900000 0.750000 0.100000
1.000000 0.750000 0.100000
1.000000 0.750000 0.100000
0.150000 0.875000 0.100000
0.275000 0.875000 0.100000
0.400000 0.875000 0.100000
0.525000 0.875000 0.100000
0.650000 0.875000 0.100000
0.775000 0.875000 0.100000
0.900000 0.875000 0.100000
1.000000 0.875000 0.100000
1.000000 0.875000 0.100000
0.150000 1.000000 0.100000
0.275000 1.000000 0.100000
0.400000 1.000000 0.100000
0.525000 1.000000 0.100000
0.650000 1.000000 0.100000
0.775000 1.000000 0.100000
0.900000 1.000000 0.100000
1.000000 1.000000 0.100000
1.000000 1.000000 0.100000
0.150000 0.000000 0.225000
0.275000 0.000000 0.225000
0.400000 0.000000 0.225000
0.525000 0.000000 0.225000
0.650000 0.000000 0.225000
0.775000 0.000000 0.225000
0.900000 0.000000 0.225000
1.000000 0.000000 0.225000
1.000000 0.000000 0.225000
0.150000 0.125000 0.225000
0.275000 0.125000 0.225000
0.400000 0.125000 0.225000
0.525000 0.125000 0.225000
0.650000 0.125000 0.225000
0.775000 0.125000 0.225000
0.900000 0.125000 0.225000
1.000000 0.125000 0.225000
1.000000 0.125000 0.225000
0.150000 0.250000 0.225000
0.275000 0.250000 0.225000
0.400000 0.250000 0.225000
0.525000 0.250000 0.225000
0.650000 0.250000 0.225000
0.775000 0.250000 0.225000
0.900000 0.250000 0.225000
1.000000 0.250000 0.225000
1.000000 0.250000 0.225000
0.150000 0.375000 0.225000
0.275000 0.375000 0.225000
0.400000 0.375000 0.225000
0.525000 0.375000 0.225000
0.650000 0.375000 0.225000
0.775000 0.375000 0.225000
0.900000 0.375000 0.225000
1.000000 0.375000 0.225000
1.000000 0.375000 0.225000
0.150000 0.500000 0.225000
0.275000 0.500000 0.225000
0.400000 0.500000 0.225000
0.525000 0.500000 0.225000
0.650000 0.500000 0.225000
0.775000 0.500000 0.225000
0.900000 0.500000 0.225000
1.000000 0.500000 0.225000
1.000000 0.500000 0.225000
0.150000 0.625000 0.225000
0.275000 0.625000 0.225000
0.400000 0.625000 0.225000
0.525000 0.625000 0.225000
0.650000 0.625000 0.225000
0.775000 0.625000 0.225000
0.900000 0.625000 0.225000
1.000000 0.625000 0.225000
1.000000 0.625000 0.225000
0.150000 0.750000 0.225000
0.275000 0.750000 0.225000
0.400000 0.750000 0.225000
0.525000 0.750000 0.225000
0.650000 0.750000 0.225000
0.775000 0.750000 0.225000
0.900000 0.750000 0.225000
1.000000 0.750000 0.225000
1.000000 0.750000 0.225000
0.150000 0.875000 0.225000
0.275000 0.875000 0.225000
0.400000 0.875000 0.225000
0.525000 0.875000 0.225000
0.650000 0.875000 0.225000
0.775000 0.875000 0.225000
0.900000 0.875000 0.225000
1.000000 0.875000 0.225000
1.000000 0.875000 0.225000
0.150000 1.000000 0.225000
0.275000 1.000000 0.225000
0.400000 1.000000 0.225000
0.525000 1.000000 0.225000
0.650000 1.000000 0.225000
0.775000 1.000000 0.225000
0.900000 1.000000 0.225000
1.000000 1.000000 0.225000
1.000000 1.000000 0.225000
0.150000 0.000000 0.350000
0.275000 0.000000 0.350000
0.400000 0.000000 0.350000
0.525000 0.000000 0.350000
0.650000 0.000000 0.350000
0.775000 0.000000 0.350000
0.900000 0.000000 0.350000
1.000000 0.000000 0.350000
1.000000 0.000000 0.350000
0.150000 0.125000 0.350000
0.275000 0.125000 0.350000
0.400000 0.125000 0.350000
0.525000 0.125000 0.350000
0.650000 0.125000 0.350000
0.775000 0.125000 0.350000
0.900000 0.125000 0.350000
1.000000 0.125000 0.350000
1.000000 0.125000 0.350000
0.150000 0.250000 0.350000
0.275000 0.250000 0.350000
0.400000 0.250000 0.350000
0.525000 0.250000 0.350000
0.650000 0.250000 0.350000
0.775000 0.250000 0.350000
0.900000 0.250000 0.350000
1.000000 0.250000 0.350000
1.000000 0.250000 0.350000
0.150000 0.375000 0.350000
0.275000 0.375000 0.350000
0.400000 0.375000 0.350000
0.525000 0.375000 0.350000
0.650000 0.375000 0.350000
0.775000 0.375000 0.350000
0.900000 0.375000 0.350000
1.000000 0.375000 0.350000
1.000000 0.375000 0.350000
0.150000 0.500000 0.350000
0.275000 0.500000 0.350000
0.400000 0.500000 0.350000
0.525000 0.500000 0.350000
0.650000 0.500000 0.350000
0.775000 0.500000 0.350000
0.900000 0.500000 0.350000
1.000000 0.500000 0.350000
1.000000 0.500000 0.350000
0.150000 0.625000 0.350000
0.275000 0.625000 0.350000
0.400000 0.625000 0.350000
0.525000 0.625000 0.350000
0.650000 0.625000 0.350000
0.775000 0.625000 0.350000
0.900000 0.625000 0.350000
1.000000 0.625000 0.350000
1.000000 0.625000 0.350000
0.150000 0.750000 0.350000
0.275000 0.750000 0.350000
0.400000 0.750000 0.350000
0.525000 0.750000 0.350000
0.650000 0.750000 0.350000
0.775000 0.750000 0.350000
0.900000 0.750000 0.350000
1.000000 0.750000 0.350000
1.000000 0.750000 0.350000
0.150000 0.875000 0.350000
0.275000 0.875000 0.350000
0.400000 0.875000 0.350000
0.525000 0.875000 0.350000
0.650000 0.875000 0.350000
0.775000 0.875000 0.350000
0.900000 0.875000 0.350000
1.000000 0.875000 0.350000
1.000000 0.875000 0.350000
0.150000 1.000000 0.350000
0.275000 1.000000 0.350000
0.400000 1.000000 0.350000
0.525000 1.000000 0.350000
0.650000 1.000000 0.350000
0.775000 1.000000 0.350000
0.900000 1.000000 0.350000
1.000000 1.000000 0.350000
1.000000 1.000000 0.350000
0.150000 0.000000 0.475000
0.275000 0.000000 0.475000
0.400000 0.000000 0.475000
0.525000 0.000000 0.475000
0.650000 0.000000 0.475000
0.775000 0.000000 0.475000
0.900000 0.000000 0.475000
1.000000 0.000000 0.475000
1.000000 0.000000 0.475000
0.150000 0.125000 0.475000
0.275000 0.125000 0.475000
0.400000 0.125000 0.475000
0.525000 0.125000 0.475000
0.650000 0.125000 0.475000
0.775000 0.125000 0.475000
0.900000 0.125000 0.475000
1.000000 0.125000 0.475000
1.000000 0.125000 0.475000
0.150000 0.250000 0.475000
0.275000 0.250000 0.475000
0.400000 0.250000 0.475000
0.525000 0.250000 0.475000
0.650000 0.250000 0.475000
0.775000 0.250000 0.475000
0.900000 0.250000 0.475000
1.000000 0.250000 0.475000
1.000000 0.250000 0.475000
0.150000 0.375000 0.475000
0.275000 0.375000 0.475000
0.400000 0.375000 0.475000
0.525000 0.375000 0.475000
0.650000 0.375000 0.475000
0.775000 0.375000 0.475000
0.900000 0.375000 0.475000
1.000000 0.375000 0.475000
1.000000 0.375000 0.475000
0.150000 0.500000 0.475000
0.275000 0.500000 0.475000
0.400000 0.500000 0.475000
0.525000 0.500000 0.475000
0.650000 0.500000 0.475000
0.775000 0.500000 0.475000
0.900000 0.500000 0.475000
1.000000 0.500000 0.475000
1.000000 0.500000 0.475000
0.150000 0.625000 0.475000
0.275000 0.625000 0.475000
0.400000 0.625000 0.475000
0.525000 0.625000 0.475000
0.650000 0.625000 0.475000
0.775000 0.625000 0.475000
0.900000 0.625000 0.475000
1.000000 0.625000 0.475000
1.000000 0.625000 0.475000
0.150000 0.750000 0.475000
0.275000 0.750000 0.475000
0.400000 0.750000 0.475000
0.525000 0.750000 0.475000
0.650000 0.750000 0.475000
0.775000 0.750000 0.475000
0.900000 0.750000 0.475000
1.000000 0.750000 0.475000
1.000000 0.750000 0.475000
0.150000 0.875000 0.475000
0.275000 0.875000 0.475000
0.400000 0.875000 0.475000
0.525000 0.875000 0.475000
0.650000 0.875000 0.475000
0.775000 0.875000 0.475000
0.900000 0.875000 0.475000
1.000000 0.875000 0.475000
1.000000 0.875000 0.475000
0.150000 1.000000 0.475000
0.275000 1.000000 0.475000
0.400000 1.000000 0.475000
0.525000 1.000000 0.475000
0.650000 1.000000 0.475000
0.775000 1.000000 0.475000
0.900000 1.000000 0.475000
1.000000 1.000000 0.475000
1.000000 1.000000 0.475000
0.150000 0.000000 0.600000
0.275000 0.000000 0.600000
0.400000 0.000000 0.600000
0.525000 0.000000 0.600000
0.650000 0.000000 0.600000
0.775000 0.000000 0.600000
0.900000 0.000000 0.600000
1.000000 0.000000 0.600000
1.000000 0.000000 0.600000
0.150000 0.125000 0.600000
0.275000 0.125000 0.600000
0.400000 0.125000 0.600000
0.525000 0.125000 0.600000
0.650000 0.125000 0.600000
0.775000 0.125000 0.600000
0.900000 0.125000 0.600000
1.000000 0.125000 0.600000
1.000000 0.125000 0.600000
0.150000 0.250000 0.600000
0.275000 0.250000 0.600000
0.400000 0.250000 0.600000
0.525000 0.250000 0.600000
0.650000 0.250000 0.600000
0.775000 0.250000 0.600000
0.900000 0.250000 0.600000
1.000000 0.250000 0.600000
1.000000 0.250000 0.600000
0.150000 0.375000 0.600000
0.275000 0.375000 0.600000
0.400000 0.375000 0.600000
0.525000 0.375000 0.600000
0.650000 0.375000 0.600000
0.775000 0.375000 0.600000
0.900000 0.375000 0.600000
1.000000 0.375000 0.600000
1.000000 0.375000 0.600000
0.150000 0.500000 0.600000
0.275000 0.500000 0.600000
0.400000 0.500000 0.600000
0.525000 0.500000 0.600000
0.650000 0.500000 0.600000
0.775000 0.500000 0.600000
0.900000 0.500000 0.600000
1.000000 0.500000 0.600000
1.000000 0.500000 0.600000
0.150000 0.625000 0.600000
0.275000 0.625000 0.600000
0.400000 0.625000 0.600000
0.525000 0.625000 0.600000
0.650000 0.625000 0.600000
0.775000 0.625000 0.600000
0.900000 0.625000 0.600000
1.000000 0.625000 0.600000
1.000000 0.625000 0.600000
0.150000 0.750000 0.600000
0.275000 0.750000 0.600000
0.400000 0.750000 0.600000
0.525000 0.750000 0.600000
0.650000 0.750000 0.600000
0.775000 0.750000 0.600000
0.900000 0.750000 0.600000
1.000000 0.750000 0.600000
1.000000 0.750000 0.600000
0.150000 0.875000 0.600000
0.275000 0.875000 0.600000
0.400000 0.875000 0.600000
0.525000 0.875000 0.600000
0.650000 0.875000 0.600000
0.775000 0.875000 0.600000
0.900000 0.875000 0.600000
1.000000 0.875000 0.600000
1.000000 0.875000 0.600000
0.150000 1.000000 0.600000
0.275000 1.000000 0.600000
0.400000 1.000000 0.600000
0.525000 1.000000 0.600000
0.650000 1.000000 0.600000
0.775000 1.000000 0.600000
0.900000 1.000000 0.600000
1.000000 1.000000 0.600000
1.000000 1.000000 0.600000
0.150000 0.000000 0.725000
0.275000 0.000000 0.725000
0.400000 0.000000 0.725000
0.525000 0.000000 0.725000
0.650000 0.000000 0.725000
0.775000 0.000000 0.725000
0.900000 0.000000 0.725000
1.000000 0.000000 0.725000
1.000000 0.000000 0.725000
0.150000 0.125000 0.725000
0.275000 0.125000 0.725000
0.400000 0.125000 0.725000
0.525000 0.125000 0.725000
0.650000 0.125000 0.725000
0.775000 0.125000 0.725000
0.900000 0.125000 0.725000
1.000000 0.125000 0.725000
1.000000 0.125000 0.725000
0.150000 0.250000 0.725000
0.275000 0.250000 0.725000
0.400000 0.250000 0.725000
0.525000 0.250000 0.725000
0.650000 0.250000 0.725000
0.775000 0.250000 0.725000
0.900000 0.250000 0.725000
1.000000 0.250000 0.725000
1.000000 0.250000 0.725000
0.150000 0.375000 0.725000
0.275000 0.375000 0.725000
0.400000 0.375000 0.725000
0.525000 0.375000 0.725000
0.650000 0.375000 0.725000
0.775000 0.375000 0.725000
0.900000 0.375000 0.725000
1.000000 0.375000 0.725000
1.000000 0.375000 0.725000
0.150000 0.500000 0.725000
0.275000 0.500000 0.725000
0.400000 0.500000 0.725000
0.525000 0.500000 0.725000
0.650000 0.500000 0.725000
0.775000 0.500000 0.725000
0.900000 0.500000 0.725000
1.000000 0.500000 0.725000
1.000000 0.500000 0.725000
0.150000 0.625000 0.725000
0.275000 0.625000 0.725000
0.400000 0.625000 0.725000
0.525000 0.625000 0.725000
0.650000 0.625000 0.725000
0.775000 0.625000 0.725000
0.900000 0.625000 0.725000
1.000000 0.625000 0.725000
1.000000 0.625000 0.725000
0.150000 0.750000 0.725000
0.275000 0.750000 0.725000
0.400000 0.750000 0.725000
0.525000 0.750000 0.725000
0.650000 0.750000 0.725000
0.775000 0.750000 0.725000
0.900000 0.750000 0.725000
1.000000 0.750000 0.725000
1.000000 0.750000 0.725000
0.150000 0.875000 0.725000
0.275000 0.875000 0.725000
0.400000 0.875000 0.725000
0.525000 0.875000 0.725000
0.650000 0.875000 0.725000
0.775000 0.875000 0.725000
0.900000 0.875000 0.725000
1.000000 0.875000 0.725000
1.000000 0.875000 0.725000
0.150000 1.000000 0.725000
0.275000 1.000000 0.725000
0.400000 1.000000 0.725000
0.525000 1.000000 0.725000
0.650000 1.000000 0.725000
0.775000 1.000000 0.725000
0.900000 1.000000 0.725000
1.000000 1.000000 0.725000
1.000000 1.000000 0.725000
0.150000 0.000000 0.850000
0.275000 0.000000 0.850000
0.400000 0.000000 0.850000
0.525000 0.000000 0.850000
0.650000 0.000000 0.850000
0.775000 0.000000 0.850000
0.900000 0.000000 0.850000
1.000000 0.000000 0.850000
1.000000 0.000000 0.850000
0.150000 0.125000 0.850000
0.275000 0.125000 0.850000
0.400000 0.125000 0.850000
0.525000 0.125000 0.850000
0.650000 0.125000 0.850000
0.775000 0.125000 0.850000
0.900000 0.125000 0.850000
1.000000 0.125000 0.850000
1.000000 0.125000 0.850000
0.150000 0.250000 0.850000
0.275000 0.250000 0.850000
0.400000 0.250000 0.850000
0.525000 0.250000 0.850000
0.650000 0.250000 0.850000
0.775000 0.250000 0.850000
0.900000 0.250000 0.850000
1.000000 0.250000 0.850000
1.000000 0.250000 0.850000
0.150000 0.375000 0.850000
0.275000 0.375000 0.850000
0.400000 0.375000 0.850000
0.525000 0.375000 0.850000
0.650000 0.375000 0.850000
0.775000 0.375000 0.850000
0.900000 0.375000 0.850000
1.000000 0.375000 0.850000
1.000000 0.375000 0.850000
0.150000 0.500000 0.850000
0.275000 0.500000 0.850000
0.400000 0.500000 0.850000
0.525000 0.500000 0.850000
0.650000 0.500000 0.850000
0.775000 0.500000 0.850000
0.900000 0.500000 0.850000
1.000000 0.500000 0.850000
1.000000 0.500000 0.850000
0.150000 0.625000 0.850000
0.275000 0.625000 0.850000
0.400000 0.625000 0.850000
0.525000 0.625000 0.850000
0.650000 0.625000 0.850000
0.775000 0.625000 0.850000
0.900000 0.625000 0.850000
1.000000 0.625000 0.850000
1.000000 0.625000 0.850000
0.150000 0.750000 0.850000
0.275000 0.750000 0.850000
0.400000 0.750000 0.850000
0.525000 0.750000 0.850000
0.650000 0.750000 0.850000
0.775000 0.750000 0.850000
0.900000 0.750000 0.850000
1.000000 0.750000 0.850000
1.000000 0.750000 0.850000
0.150000 0.875000 0.850000
0.275000 0.875000 0.850000
0.400000 0.875000 0.850000
0.525000 0.875000 0.850000
0.650000 0.875000 0.850000
0.775000 0.875000 0.850000
0.900000 0.875000 0.850000
1.000000 0.875000 0.850000
1.000000 0.875000 0.850000
0.150000 1.000000 0.850000
0.275000 1.000000 0.850000
0.400000 1.000000 0.850000
0.525000 1.000000 0.850000
0.650000 1.000000 0.850000
0.775000 1.000000 0.850000
0.900000 1.000000 0.850000
1.000000 1.000000 0.850000
1.000000 1.000000 0.850000
