Tests/TestData/strong_test_lut.cube
# Strong Test LUT - Dramatic effect
TITLE "Strong Test LUT"
LUT_3D_SIZE 17
DOMAIN_MIN 0.0 0.0 0.0
DOMAIN_MAX 1.0 1.0 1.0
0.150000 0.000000 0.000000
0.212500 0.000000 0.000000
0.275000 0.000000 0.000000
0.337500 0.000000 0.000000
0.400000 0.000000 0.000000
0.462500 0.000000 0.000000
0.525000 0.000000 0.000000
0.587500 0.000000 0.000000
0.650000 0.000000 0.000000
0.712500 0.000000 0.000000
0.775000 0.000000 0.000000
0.837500 0.000000 0.000000
0.900000 0.000000 0.000000
0.962500 0.000000 0.000000
1.000000 0.000000 0.000000
1.000000 0.000000 0.000000
1.000000 0.000000 0.000000
0.150000 0.062500 0.000000
0.212500 0.062500 0.000000
0.275000 0.062500 0.000000
0.337500 0.062500 0.000000
0.400000 0.062500 0.000000
0.462500 0.062500 0.000000
0.525000 0.062500 0.000000
0.587500 0.062500 0.000000
0.650000 0.062500 0.000000
0.712500 0.062500 0.000000
0.775000 0.062500 0.000000
0.837500 0.062500 0.000000
0.900000 0.062500 0.000000
0.962500 0.062500 0.000000
1.000000 0.062500 0.000000
1.000000 0.062500 0.000000
1.000000 0.062500 0.000000
0.150000 0.125000 0.000000
0.212500 0.125000 0.000000
0.275000 0.125000 0.000000
0.337500 0.125000 0.000000
0.400000 0.125000 0.000000
0.462500 0.125000 0.000000
0.525000 0.125000 0.000000
0.587500 0.125000 0.000000
0.650000 0.125000 0.000000
0.712500 0.125000 0.000000
0.775000 0.125000 0.000000
0.837500 0.125000 0.000000
0.900000 0.125000 0.000000
0.962500 0.125000 0.000000
1.000000 0.125000 0.000000
1.000000 0.125000 0.000000
1.000000 0.125000 0.000000
0.150000 0.187500 0.000000
0.212500 0.187500 0.000000
0.275000 0.187500 0.000000
0.337500 0.187500 0.000000
0.400000 0.187500 0.000000
0.462500 0.187500 0.000000
0.525000 0.187500 0.000000
0.587500 0.187500 0.000000
0.650000 0.187500 0.000000
0.712500 0.187500 0.000000
0.775000 0.187500 0.000000
0.837500 0.187500 0.000000
0.900000 0.187500 0.000000
0.962500 0.187500 0.000000
1.000000 0.187500 0.000000
1.000000 0.187500 0.000000
1.000000 0.187500 0.000000
0.150000 0.250000 0.000000
0.212500 0.250000 0.000000
0.275000 0.250000 0.000000
0.337500 0.250000 0.000000
0.400000 0.250000 0.000000
0.462500 0.250000 0.000000
0.525000 0.250000 0.000000
0.587500 0.250000 0.000000
0.650000 0.250000 0.000000
0.712500 0.250000 0.000000
0.775000 0.250000 0.000000
0.837500 0.250000 0.000000
0.900000 0.250000 0.000000
0.962500 0.250000 0.000000
1.000000 0.250000 0.000000
1.000000 0.250000 0.000000
1.000000 0.250000 0.000000
0.150000 0.312500 0.000000
0.212500 0.312500 0.000000
0.275000 0.312500 0.000000
0.337500 0.312500 0.000000
0.400000 0.312500 0.000000
0.462500 0.312500 0.000000
0.525000 0.312500 0.000000
0.587500 0.312500 0.000000
0.650000 0.312500 0.000000
0.712500 0.312500 0.000000
0.775000 0.312500 0.000000
0.837500 0.312500 0.000000
0.900000 0.312500 0.000000
0.962500 0.312500 0.000000
1.000000 0.312500 0.000000
1.000000 0.312500 0.000000
1.000000 0.312500 0.000000
0.150000 0.375000 0.000000
0.212500 0.375000 0.000000
0.275000 0.375000 0.000000
0.337500 0.375000 0.000000
0.400000 0.375000 0.000000
0.462500 0.375000 0.000000
0.525000 0.375000 0.000000
0.587500 0.375000 0.000000
0.650000 0.375000 0.000000
0.712500 0.375000 0.000000
0.775000 0.375000 0.000000
0.837500 0.375000 0.000000
0.900000 0.375000 0.000000
0.962500 0.375000 0.000000
1.000000 0.375000 0.000000
1.000000 0.375000 0.000000
1.000000 0.375000 0.000000
0.150000 0.437500 0.000000
0.212500 0.437500 0.000000
0.275000 0.437500 0.000000
0.337500 0.437500 0.000000
0.400000 0.437500 0.000000
0.462500 0.437500 0.000000
0.525000 0.437500 0.000000
0.587500 0.437500 0.000000
0.650000 0.437500 0.000000
0.712500 0.437500 0.000000
0.775000 0.437500 0.000000
0.837500 0.437500 0.000000
0.900000 0.437500 0.000000
0.962500 0.437500 0.000000
1.000000 0.437500 0.000000
1.000000 0.437500 0.000000
1.000000 0.437500 0.000000
0.150000 0.500000 0.000000
0.212500 0.500000 0.000000
0.275000 0.500000 0.000000
0.337500 0.500000 0.000000
0.400000 0.500000 0.000000
0.462500 0.500000 0.000000
0.525000 0.500000 0.000000
0.587500 0.500000 0.000000
0.650000 0.500000 0.000000
0.712500 0.500000 0.000000
0.775000 0.500000 0.000000
0.837500 0.500000 0.000000
0.900000 0.500000 0.000000
0.962500 0.500000 0.000000
1.000000 0.500000 0.000000
1.000000 0.500000 0.000000
1.000000 0.500000 0.000000
0.150000 0.562500 0.000000
0.212500 0.562500 0.000000
0.275000 0.562500 0.000000
0.337500 0.562500 0.000000
0.400000 0.562500 0.000000
0.462500 0.562500 0.000000
0.525000 0.562500 0.000000
0.587500 0.562500 0.000000
0.650000 0.562500 0.000000
0.712500 0.562500 0.000000
0.775000 0.562500 0.000000
0.837500 0.562500 0.000000
0.900000 0.562500 0.000000
0.962500 0.562500 0.000000
1.000000 0.562500 0.000000
1.000000 0.562500 0.000000
1.000000 0.562500 0.000000
0.150000 0.625000 0.000000
0.212500 0.625000 0.000000
0.275000 0.625000 0.000000
0.337500 0.625000 0.000000
0.400000 0.625000 0.000000
0.462500 0.625000 0.000000
0.525000 0.625000 0.000000
0.587500 0.625000 0.000000
0.650000 0.625000 0.000000
0.712500 0.625000 0.000000
0.775000 0.625000 0.000000
0.837500 0.625000 0.000000
0.900000 0.625000 0.000000
0.962500 0.625000 0.000000
1.000000 0.625000 0.000000
1.000000 0.625000 0.000000
1.000000 0.625000 0.000000
0.150000 0.687500 0.000000
0.212500 0.687500 0.000000
0.275000 0.687500 0.000000
0.337500 0.687500 0.000000
0.400000 0.687500 0.000000
0.462500 0.687500 0.000000
0.525000 0.687500 0.000000
0.587500 0.687500 0.000000
0.650000 0.687500 0.000000
0.712500 0.687500 0.000000
0.775000 0.687500 0.000000
0.837500 0.687500 0.000000
0.900000 0.687500 0.000000
0.962500 0.687500 0.000000
1.000000 0.687500 0.000000
1.000000 0.687500 0.000000
1.000000 0.687500 0.000000
0.150000 0.750000 0.000000
0.212500 0.750000 0.000000
0.275000 0.750000 0.000000
0.337500 0.750000 0.000000
0.400000 0.750000 0.000000
0.462500 0.750000 0.000000
0.525000 0.750000 0.000000
0.587500 0.750000 0.000000
0.650000 0.750000 0.000000
0.712500 0.750000 0.000000
0.775000 0.750000 0.000000
0.837500 0.750000 0.000000
0.900000 0.750000 0.000000
0.962500 0.750000 0.000000
1.000000 0.750000 0.000000
1.000000 0.750000 0.000000
1.000000 0.750000 0.000000
0.150000 0.812500 0.000000
0.212500 0.812500 0.000000
0.275000 0.812500 0.000000
0.337500 0.812500 0.000000
0.400000 0.812500 0.000000
0.462500 0.812500 0.000000
0.525000 0.812500 0.000000
0.587500 0.812500 0.000000
0.650000 0.812500 0.000000
0.712500 0.812500 0.000000
0.775000 0.812500 0.000000
0.837500 0.812500 0.000000
0.900000 0.812500 0.000000
0.962500 0.812500 0.000000
1.000000 0.812500 0.000000
1.000000 0.812500 0.000000
1.000000 0.812500 0.000000
0.150000 0.875000 0.000000
0.212500 0.875000 0.000000
0.275000 0.875000 0.000000
0.337500 0.875000 0.000000
0.400000 0.875000 0.000000
0.462500 0.875000 0.000000
0.525000 0.875000 0.000000
0.587500 0.875000 0.000000
0.650000 0.875000 0.000000
0.712500 0.875000 0.000000
0.775000 0.875000 0.000000
0.837500 0.875000 0.000000
0.900000 0.875000 0.000000
0.962500 0.875000 0.000000
1.000000 0.875000 0.000000
1.000000 0.875000 0.000000
1.000000 0.875000 0.000000
0.150000 0.937500 0.000000
0.212500 0.937500 0.000000
0.275000 0.937500 0.000000
0.337500 0.937500 0.000000
0.400000 0.937500 0.000000
0.462500 0.937500 0.000000
0.525000 0.937500 0.000000
0.587500 0.937500 0.000000
0.650000 0.937500 0.000000
0.712500 0.937500 0.000000
0.775000 0.937500 0.000000
0.837500 0.937500 0.000000
0.900000 0.937500 0.000000
0.962500 0.937500 0.000000
1.000000 0.937500 0.000000
1.000000 0.937500 0.000000
1.000000 0.937500 0.000000
0.150000 1.000000 0.000000
0.212500 1.000000 0.000000
0.275000 1.000000 0.000000
0.337500 1.000000 0.000000
0.400000 1.000000 0.000000
0.462500 1.000000 0.000000
0.525000 1.000000 0.000000
0.587500 1.000000 0.000000
0.650000 1.000000 0.000000
0.712500 1.000000 0.000000
0.775000 1.000000 0.000000
0.837500 1.000000 0.000000
0.900000 1.000000 0.000000
0.962500 1.000000 0.000000
1.000000 1.000000 0.000000
1.000000 1.000000 0.000000
1.000000 1.000000 0.000000
0.150000 0.000000 0.000000
0.212500 0.000000 0.000000
0.275000 0.000000 0.000000
0.337500 0.000000 0.000000
0.400000 0.000000 0.000000
0.462500 0.000000 0.000000
0.525000 0.000000 0.000000
0.587500 0.000000 0.000000
0.650000 0.000000 0.000000
0.712500 0.000000 0.000000
0.775000 0.000000 0.000000
0.837500 0.000000 0.000000
0.900000 0.000000 0.000000
0.962500 0.000000 0.000000
1.000000 0.000000 0.000000
1.000000 0.000000 0.000000
1.000000 0.000000 0.000000
0.150000 0.062500 0.000000
0.212500 0.062500 0.000000
0.275000 0.062500 0.000000
0.337500 0.062500 0.000000
0.400000 0.062500 0.000000
0.462500 0.062500 0.000000
0.525000 0.062500 0.000000
0.587500 0.062500 0.000000
0.650000 0.062500 0.000000
0.712500 0.062500 0.000000
0.775000 0.062500 0.000000
0.837500 0.062500 0.000000
0.900000 0.062500 0.000000
0.962500 0.062500 0.000000
1.000000 0.062500 0.000000
1.000000 0.062500 0.000000
1.000000 0.062500 0.000000
0.150000 0.125000 0.000000
0.212500 0.125000 0.000000
0.275000 0.125000 0.000000
0.337500 0.125000 0.000000
0.400000 0.125000 0.000000
0.462500 0.125000 0.000000
0.525000 0.125000 0.000000
0.587500 0.125000 0.000000
0.650000 0.125000 0.000000
0.712500 0.125000 0.000000
0.775000 0.125000 0.000000
0.837500 0.125000 0.000000
0.900000 0.125000 0.000000
0.962500 0.125000 0.000000
1.000000 0.125000 0.000000
1.000000 0.125000 0.000000
1.000000 0.125000 0.000000
0.150000 0.187500 0.000000
0.212500 0.187500 0.000000
0.275000 0.187500 0.000000
0.337500 0.187500 0.000000
0.400000 0.187500 0.000000
0.462500 0.187500 0.000000
0.525000 0.187500 0.000000
0.587500 0.187500 0.000000
0.650000 0.187500 0.000000
0.712500 0.187500 0.000000
0.775000 0.187500 0.000000
0.837500 0.187500 0.000000
0.900000 0.187500 0.000000
0.962500 0.187500 0.000000
1.000000 0.187500 0.000000
1.000000 0.187500 0.000000
1.000000 0.187500 0.000000
0.150000 0.250000 0.000000
0.212500 0.250000 0.000000
0.275000 0.250000 0.000000
0.337500 0.250000 0.000000
0.400000 0.250000 0.000000
0.462500 0.250000 0.000000
0.525000 0.250000 0.000000
0.587500 0.250000 0.000000
0.650000 0.250000 0.000000
0.712500 0.250000 0.000000
0.775000 0.250000 0.000000
0.837500 0.250000 0.000000
0.900000 0.250000 0.000000
0.962500 0.250000 0.000000
1.000000 0.250000 0.000000
1.000000 0.250000 0.000000
1.000000 0.250000 0.000000
0.150000 0.312500 0.000000
0.212500 0.312500 0.000000
0.275000 0.312500 0.000000
0.337500 0.312500 0.000000
0.400000 0.312500 0.000000
0.462500 0.312500 0.000000
0.525000 0.312500 0.000000
0.587500 0.312500 0.000000
0.650000 0.312500 0.000000
0.712500 0.312500 0.000000
0.775000 0.312500 0.000000
0.837500 0.312500 0.000000
0.900000 0.312500 0.000000
0.962500 0.312500 0.000000
1.000000 0.312500 0.000000
1.000000 0.312500 0.000000
1.000000 0.312500 0.000000
0.150000 0.375000 0.000000
0.212500 0.375000 0.000000
0.275000 0.375000 0.000000
0.337500 0.375000 0.000000
0.400000 0.375000 0.000000
0.462500 0.375000 0.000000
0.525000 0.375000 0.000000
0.587500 0.375000 0.000000
0.650000 0.375000 0.000000
0.712500 0.375000 0.000000
0.775000 0.375000 0.000000
0.837500 0.375000 0.000000
0.900000 0.375000 0.000000
0.962500 0.375000 0.000000
1.000000 0.375000 0.000000
1.000000 0.375000 0.000000
1.000000 0.375000 0.000000
0.150000 0.437500 0.000000
0.212500 0.437500 0.000000
0.275000 0.437500 0.000000
0.337500 0.437500 0.000000
0.400000 0.437500 0.000000
0.462500 0.437500 0.000000
0.525000 0.437500 0.000000
0.587500 0.437500 0.000000
0.650000 0.437500 0.000000
0.712500 0.437500 0.000000
0.775000 0.437500 0.000000
0.837500 0.437500 0.000000
0.900000 0.437500 0.000000
0.962500 0.437500 0.000000
1.000000 0.437500 0.000000
1.000000 0.437500 0.000000
1.000000 0.437500 0.000000
0.150000 0.500000 0.000000
0.212500 0.500000 0.000000
0.275000 0.500000 0.000000
0.337500 0.500000 0.000000
0.400000 0.500000 0.000000
0.462500 0.500000 0.000000
0.525000 0.500000 0.000000
0.587500 0.500000 0.000000
0.650000 0.500000 0.000000
0.712500 0.500000 0.000000
0.775000 0.500000 0.000000
0.837500 0.500000 0.000000
0.900000 0.500000 0.000000
0.962500 0.500000 0.000000
1.000000 0.500000 0.000000
1.000000 0.500000 0.000000
1.000000 0.500000 0.000000
0.150000 0.562500 0.000000
0.212500 0.562500 0.000000
0.275000 0.562500 0.000000
0.337500 0.562500 0.000000
0.400000 0.562500 0.000000
0.462500 0.562500 0.000000
0.525000 0.562500 0.000000
0.587500 0.562500 0.000000
0.650000 0.562500 0.000000
0.712500 0.562500 0.000000
0.775000 0.562500 0.000000
0.837500 0.562500 0.000000
0.900000 0.562500 0.000000
0.962500 0.562500 0.000000
1.000000 0.562500 0.000000
1.000000 0.562500 0.000000
1.000000 0.562500 0.000000
0.150000 0.625000 0.000000
0.212500 0.625000 0.000000
0.275000 0.625000 0.000000
0.337500 0.625000 0.000000
0.400000 0.625000 0.000000
0.462500 0.625000 0.000000
0.525000 0.625000 0.000000
0.587500 0.625000 0.000000
0.650000 0.625000 0.000000
0.712500 0.625000 0.000000
0.775000 0.625000 0.000000
0.837500 0.625000 0.000000
0.900000 0.625000 0.000000
0.962500 0.625000 0.000000
1.000000 0.625000 0.000000
1.000000 0.625000 0.000000
1.000000 0.625000 0.000000
0.150000 0.687500 0.000000
0.212500 0.687500 0.000000
0.275000 0.687500 0.000000
0.337500 0.687500 0.000000
0.400000 0.687500 0.000000
0.462500 0.687500 0.000000
0.525000 0.687500 0.000000
0.587500 0.687500 0.000000
0.650000 0.687500 0.000000
0.712500 0.687500 0.000000
0.775000 0.687500 0.000000
0.837500 0.687500 0.000000
0.900000 0.687500 0.000000
0.962500 0.687500 0.000000
1.000000 0.687500 0.000000
1.000000 0.687500 0.000000
1.000000 0.687500 0.000000
0.150000 0.750000 0.000000
0.212500 0.750000 0.000000
0.275000 0.750000 0.000000
0.337500 0.750000 0.000000
0.400000 0.750000 0.000000
0.462500 0.750000 0.000000
0.525000 0.750000 0.000000
0.587500 0.750000 0.000000
0.650000 0.750000 0.000000
0.712500 0.750000 0.000000
0.775000 0.750000 0.000000
0.837500 0.750000 0.000000
0.900000 0.750000 0.000000
0.962500 0.750000 0.000000
1.000000 0.750000 0.000000
1.000000 0.750000 0.000000
1.000000 0.750000 0.000000
0.150000 0.812500 0.000000
0.212500 0.812500 0.000000
0.275000 0.812500 0.000000
0.337500 0.812500 0.000000
0.400000 0.812500 0.000000
0.462500 0.812500 0.000000
0.525000 0.812500 0.000000
0.587500 0.812500 0.000000
0.650000 0.812500 0.000000
0.712500 0.812500 0.000000
0.775000 0.812500 0.000000
0.837500 0.812500 0.000000
0.900000 0.812500 0.000000
0.962500 0.812500 0.000000
1.000000 0.812500 0.000000
1.000000 0.812500 0.000000
1.000000 0.812500 0.000000
0.150000 0.875000 0.000000
0.212500 0.875000 0.000000
0.275000 0.875000 0.000000
0.337500 0.875000 0.000000
0.400000 0.875000 0.000000
0.462500 0.875000 0.000000
0.525000 0.875000 0.000000
0.587500 0.875000 0.000000
0.650000 0.875000 0.000000
0.712500 0.875000 0.000000
0.775000 0.875000 0.000000
0.837500 0.875000 0.000000
0.900000 0.875000 0.000000
0.962500 0.875000 0.000000
1.000000 0.875000 0.000000
1.000000 0.875000 0.000000
1.000000 0.875000 0.000000
0.150000 0.937500 0.000000
0.212500 0.937500 0.000000
0.275000 0.937500 0.000000
0.337500 0.937500 0.000000
0.400000 0.937500 0.000000
0.462500 0.937500 0.000000
0.525000 0.937500 0.000000
0.587500 0.937500 0.000000
0.650000 0.937500 0.000000
0.712500 0.937500 0.000000
0.775000 0.937500 0.000000
0.837500 0.937500 0.000000
0.900000 0.937500 0.000000
0.962500 0.937500 0.000000
1.000000 0.937500 0.000000
1.000000 0.937500 0.000000
1.000000 0.937500 0.000000
0.150000 1.000000 0.000000
0.212500 1.000000 0.000000
0.275000 1.000000 0.000000
0.337500 1.000000 0.000000
0.400000 1.000000 0.000000
0.462500 1.000000 0.000000
0.525000 1.000000 0.000000
0.587500 1.000000 0.000000
0.650000 1.000000 0.000000
0.712500 1.000000 0.000000
0.775000 1.000000 0.000000
0.837500 1.000000 0.000000
0.900000 1.000000 0.000000
0.962500 1.000000 0.000000
1.000000 1.000000 0.000000
1.000000 1.000000 0.000000
1.000000 1.000000 0.000000
0.150000 0.000000 0.000000
0.212500 0.000000 0.000000
0.275000 0.000000 0.000000
0.337500 0.000000 0.000000
0.400000 0.000000 0.000000
0.462500 0.000000 0.000000
0.525000 0.000000 0.000000
0.587500 0.000000 0.000000
0.650000 0.000000 0.000000
0.712500 0.000000 0.000000
0.775000 0.000000 0.000000
0.837500 0.000000 0.000000
0.900000 0.000000 0.000000
0.962500 0.000000 0.000000
1.000000 0.000000 0.000000
1.000000 0.000000 0.000000
1.000000 0.000000 0.000000
0.150000 0.062500 0.000000
0.212500 0.062500 0.000000
0.275000 0.062500 0.000000
0.337500 0.062500 0.000000
0.400000 0.062500 0.000000
0.462500 0.062500 0.000000
0.525000 0.062500 0.000000
0.587500 0.062500 0.000000
0.650000 0.062500 0.000000
0.712500 0.062500 0.000000
0.775000 0.062500 0.000000
0.837500 0.062500 0.000000
0.900000 0.062500 0.000000
0.962500 0.062500 0.000000
1.000000 0.062500 0.000000
1.000000 0.062500 0.000000
1.000000 0.062500 0.000000
0.150000 0.125000 0.000000
0.212500 0.125000 0.000000
0.275000 0.125000 0.000000
0.337500 0.125000 0.000000
0.400000 0.125000 0.000000
0.462500 0.125000 0.000000
0.525000 0.125000 0.000000
0.587500 0.125000 0.000000
0.650000 0.125000 0.000000
0.712500 0.125000 0.000000
0.775000 0.125000 0.000000
0.837500 0.125000 0.000000
0.900000 0.125000 0.000000
0.962500 0.125000 0.000000
1.000000 0.125000 0.000000
1.000000 0.125000 0.000000
1.000000 0.125000 0.000000
0.150000 0.187500 0.000000
0.212500 0.187500 0.000000
0.275000 0.187500 0.000000
0.337500 0.187500 0.000000
0.400000 0.187500 0.000000
0.462500 0.187500 0.000000
0.525000 0.187500 0.000000
0.587500 0.187500 0.000000
0.650000 0.187500 0.000000
0.712500 0.187500 0.000000
0.775000 0.187500 0.000000
0.837500 0.187500 0.000000
0.900000 0.187500 0.000000
0.962500 0.187500 0.000000
1.000000 0.187500 0.000000
1.000000 0.187500 0.000000
1.000000 0.187500 0.000000
0.150000 0.250000 0.000000
0.212500 0.250000 0.000000
0.275000 0.250000 0.000000
0.337500 0.250000 0.000000
0.400000 0.250000 0.000000
0.462500 0.250000 0.000000
0.525000 0.250000 0.000000
0.587500 0.250000 0.000000
0.650000 0.250000 0.000000
0.712500 0.250000 0.000000
0.775000 0.250000 0.000000
0.837500 0.250000 0.000000
0.900000 0.250000 0.000000
0.962500 0.250000 0.000000
1.000000 0.250000 0.000000
1.000000 0.250000 0.000000
1.000000 0.250000 0.000000
0.150000 0.312500 0.000000
0.212500 0.312500 0.000000
0.275000 0.312500 0.000000
0.337500 0.312500 0.000000
0.400000 0.312500 0.000000
0.462500 0.312500 0.000000
0.525000 0.312500 0.000000
0.587500 0.312500 0.000000
0.650000 0.312500 0.000000
0.712500 0.312500 0.000000
0.775000 0.312500 0.000000
0.837500 0.312500 0.000000
0.900000 0.312500 0.000000
0.962500 0.312500 0.000000
1.000000 0.312500 0.000000
1.000000 0.312500 0.000000
1.000000 0.312500 0.000000
0.150000 0.375000 0.000000
0.212500 0.375000 0.000000
0.275000 0.375000 0.000000
0.337500 0.375000 0.000000
0.400000 0.375000 0.000000
0.462500 0.375000 0.000000
0.525000 0.375000 0.000000
0.587500 0.375000 0.000000
0.650000 0.375000 0.000000
0.712500 0.375000 0.000000
0.775000 0.375000 0.000000
0.837500 0.375000 0.000000
0.900000 0.375000 0.000000
0.962500 0.375000 0.000000
1.000000 0.375000 0.000000
1.000000 0.375000 0.000000
1.000000 0.375000 0.000000
0.150000 0.437500 0.000000
0.212500 0.437500 0.000000
0.275000 0.437500 0.000000
0.337500 0.437500 0.000000
0.400000 0.437500 0.000000
0.462500 0.437500 0.000000
0.525000 0.437500 0.000000
0.587500 0.437500 0.000000
0.650000 0.437500 0.000000
0.712500 0.437500 0.000000
0.775000 0.437500 0.000000
0.837500 0.437500 0.000000
0.900000 0.437500 0.000000
0.962500 0.437500 0.000000
1.000000 0.437500 0.000000
1.000000 0.437500 0.000000
1.000000 0.437500 0.000000
0.150000 0.500000 0.000000
0.212500 0.500000 0.000000
0.275000 0.500000 0.000000
0.337500 0.500000 0.000000
0.400000 0.500000 0.000000
0.462500 0.500000 0.000000
0.525000 0.500000 0.000000
0.587500 0.500000 0.000000
0.650000 0.500000 0.000000
0.712500 0.500000 0.000000
0.775000 0.500000 0.000000
0.837500 0.500000 0.000000
0.900000 0.500000 0.000000
0.962500 0.500000 0.000000
1.000000 0.500000 0.000000
1.000000 0.500000 0.000000
1.000000 0.500000 0.000000
0.150000 0.562500 0.000000
0.212500 0.562500 0.000000
0.275000 0.562500 0.000000
0.337500 0.562500 0.000000
0.400000 0.562500 0.000000
0.462500 0.562500 0.000000
0.525000 0.562500 0.000000
0.587500 0.562500 0.000000
0.650000 0.562500 0.000000
0.712500 0.562500 0.000000
0.775000 0.562500 0.000000
0.837500 0.562500 0.000000
0.900000 0.562500 0.000000
0.962500 0.562500 0.000000
1.000000 0.562500 0.000000
1.000000 0.562500 0.000000
1.000000 0.562500 0.000000
0.150000 0.625000 0.000000
0.212500 0.625000 0.000000
0.275000 0.625000 0.000000
0.337500 0.625000 0.000000
0.400000 0.625000 0.000000
0.462500 0.625000 0.000000
0.525000 0.625000 0.000000
0.587500 0.625000 0.000000
0.650000 0.625000 0.000000
0.712500 0.625000 0.000000
0.775000 0.625000 0.000000
0.837500 0.625000 0.000000
0.900000 0.625000 0.000000
0.962500 0.625000 0.000000
1.000000 0.625000 0.000000
1.000000 0.625000 0.000000
1.000000 0.625000 0.000000
0.150000 0.687500 0.000000
0.212500 0.687500 0.000000
0.275000 0.687500 0.000000
0.337500 0.687500 0.000000
0.400000 0.687500 0.000000
0.462500 0.687500 0.000000
0.525000 0.687500 0.000000
0.587500 0.687500 0.000000
0.650000 0.687500 0.000000
0.712500 0.687500 0.000000
0.775000 0.687500 0.000000
0.837500 0.687500 0.000000
0.900000 0.687500 0.000000
0.962500 0.687500 0.000000
1.000000 0.687500 0.000000
1.000000 0.687500 0.000000
1.000000 0.687500 0.000000
0.150000 0.750000 0.000000
0.212500 0.750000 0.000000
0.275000 0.750000 0.000000
0.337500 0.750000 0.000000
0.400000 0.750000 0.000000
0.462500 0.750000 0.000000
0.525000 0.750000 0.000000
0.587500 0.750000 0.000000
0.650000 0.750000 0.000000
0.712500 0.750000 0.000000
0.775000 0.750000 0.000000
0.837500 0.750000 0.000000
0.900000 0.750000 0.000000
0.962500 0.750000 0.000000
1.000000 0.750000 0.000000
1.000000 0.750000 0.000000
1.000000 0.750000 0.000000
0.150000 0.812500 0.000000
0.212500 0.812500 0.000000
0.275000 0.812500 0.000000
0.337500 0.812500 0.000000
0.400000 0.812500 0.000000
0.462500 0.812500 0.000000
0.525000 0.812500 0.000000
0.587500 0.812500 0.000000
0.650000 0.812500 0.000000
0.712500 0.812500 0.000000
0.775000 0.812500 0.000000
0.837500 0.812500 0.000000
0.900000 0.812500 0.000000
0.962500 0.812500 0.000000
1.000000 0.812500 0.000000
1.000000 0.812500 0.000000
1.000000 0.812500 0.000000
0.150000 0.875000 0.000000
0.212500 0.875000 0.000000
0.275000 0.875000 0.000000
0.337500 0.875000 0.000000
0.400000 0.875000 0.000000
0.462500 0.875000 0.000000
0.525000 0.875000 0.000000
0.587500 0.875000 0.000000
0.650000 0.875000 0.000000
0.712500 0.875000 0.000000
0.775000 0.875000 0.000000
0.837500 0.875000 0.000000
0.900000 0.875000 0.000000
0.962500 0.875000 0.000000
1.000000 0.875000 0.000000
1.000000 0.875000 0.000000
1.000000 0.875000 0.000000
0.150000 0.937500 0.000000
0.212500 0.937500 0.000000
0.275000 0.937500 0.000000
0.337500 0.937500 0.000000
0.400000 0.937500 0.000000
0.462500 0.937500 0.000000
0.525000 0.937500 0.000000
0.587500 0.937500 0.000000
0.650000 0.937500 0.000000
0.712500 0.937500 0.000000
0.775000 0.937500 0.000000
0.837500 0.937500 0.000000
0.900000 0.937500 0.000000
0.962500 0.937500 0.000000
1.000000 0.937500 0.000000
1.000000 0.937500 0.000000
1.000000 0.937500 0.000000
0.150000 1.000000 0.000000
0.212500 1.000000 0.000000
0.275000 1.000000 0.000000
0.337500 1.000000 0.000000
0.400000 1.000000 0.000000
0.462500 1.000000 0.000000
0.525000 1.000000 0.000000
0.587500 1.000000 0.000000
0.650000 1.000000 0.000000
0.712500 1.000000 0.000000
0.775000 1.000000 0.000000
0.837500 1.000000 0.000000
0.900000 1.000000 0.000000
0.962500 1.000000 0.000000
1.000000 1.000000 0.000000
1.000000 1.000000 0.000000
1.000000 1.000000 0.000000
0.150000 0.000000 0.037500
0.212500 0.000000 0.037500
0.275000 0.000000 0.037500
0.337500 0.000000 0.037500
0.400000 0.000000 0.037500
0.462500 0.000000 0.037500
0.525000 0.000000 0.037500
0.587500 0.000000 0.037500
0.650000 0.000000 0.037500
0.712500 0.000000 0.037500
0.775000 0.000000 0.037500
0.837500 0.000000 0.037500
0.900000 0.000000 0.037500
0.962500 0.000000 0.037500
1.000000 0.000000 0.037500
1.000000 0.000000 0.037500
1.000000 0.000000 0.037500
